displaycal/Kuycon G27P/G27P #1 2026-07-24 16-10 2.2 F-S XYZLUT+MTX.ti3
CTI3   

DESCRIPTOR "Argyll Calibration Target chart information 3"
ORIGINATOR "Argyll dispread"
CREATED "Fri Jul 24 16:20:07 2026"
DEVICE_CLASS "DISPLAY"
SINGLE_DIM_STEPS "5"
COMP_GREY_STEPS "52"
MULTI_DIM_STEPS "5"
COLOR_REP "RGB_XYZ"
TARGET_INSTRUMENT "Datacolor SpyderX"
INSTRUMENT_TYPE_SPECTRAL "NO"
LUMINANCE_XYZ_CDM2 "236.401552 230.479443 337.820621"
NORMALIZED_TO_Y_100 "YES"
VIDEO_LUT_CALIBRATION_POSSIBLE "YES"

BEGIN_ARGYLL_COLPROF_ARGS
-v -qh -aX -bn -C "No copyright. Created with DisplayCAL 3.8.9.3 and ArgyllCMS 3.5.0" -M "Kuycon G27P"
END_ARGYLL_COLPROF_ARGS

OBSERVER "1931_2"
USE_BLACK_POINT_COMPENSATION "NO"
BLACK_POINT_CORRECTION "0.0"
HIRES_B2A "YES"
HIRES_B2A_SIZE "-1"
SMOOTH_B2A "YES"
PATCH_SEQUENCE "OPTIMIZE_DISPLAY_RESPONSE_DELAY"

NUMBER_OF_FIELDS 7
BEGIN_DATA_FORMAT
SAMPLE_ID RGB_R RGB_G RGB_B XYZ_X XYZ_Y XYZ_Z
END_DATA_FORMAT

NUMBER_OF_SETS 175
BEGIN_DATA
1 100.00000 100.00000 100.00000 102.56950 100.00000 146.57300
2 100.00000 100.00000 75.000000 89.970130 95.673020 79.591300
3 100.00000 100.00000 100.00000 102.47280 99.895730 146.40870
4 100.00000 100.00000 100.00000 102.55170 99.982760 146.55820
5 0.0000000 0.0000000 0.0000000 0.0601312 0.0636215 0.0894708
6 25.000000 0.0000000 0.0000000 2.3826630 1.1342160 0.1108550
7 50.000000 0.0000000 0.0000000 10.784500 4.9870820 0.1263310
8 75.000000 0.0000000 0.0000000 25.761340 11.843030 0.1242920
9 100.00000 0.0000000 0.0000000 49.163640 22.568760 0.1523240
10 100.00000 0.0000000 25.000000 50.406150 22.981030 6.8009640
11 100.00000 25.000000 25.000000 51.660630 26.138210 6.9532740
12 100.00000 50.000000 25.000000 56.392420 38.003470 7.9280620
13 100.00000 75.000000 25.000000 64.661160 59.002360 9.5147700
14 0.0000000 0.0000000 25.000000 1.2959360 0.4821970 6.7081030
15 25.000000 0.0000000 25.000000 3.6302060 1.5521450 6.7291780
16 75.000000 0.0000000 100.00000 52.029090 20.519940 140.87450
17 100.00000 0.0000000 100.00000 75.239020 31.153390 140.90700
18 1.9608000 1.9608000 1.9608000 0.1203390 0.1211870 0.1789040
19 3.9216000 3.9216000 3.9216000 0.1983050 0.1959900 0.2830860
20 5.8824000 5.8824000 5.8824000 0.2888440 0.2944900 0.4324110
21 7.8431000 7.8431000 7.8431000 0.4150520 0.4153540 0.6111600
22 9.8039000 9.8039000 9.8039000 0.6493300 0.6398040 0.9388080
23 11.765000 11.765000 11.765000 0.9256000 0.9105970 1.3260760
24 13.726000 13.726000 13.726000 1.2865430 1.2498940 1.8475340
25 15.686000 15.686000 15.686000 1.7673670 1.7163940 2.5328340
26 17.647000 17.647000 17.647000 2.3021500 2.2407440 3.2926210
27 19.608000 19.608000 19.608000 2.8851750 2.8111530 4.1269740
28 21.569000 21.569000 21.569000 3.5294750 3.4453040 5.0960990
29 23.529000 23.529000 23.529000 4.1856630 4.0970150 6.0801280
30 27.451000 27.451000 27.451000 5.9255170 5.8021540 8.4474030
31 29.412000 29.412000 29.412000 6.9955400 6.8448360 9.9820400
32 31.373000 31.373000 31.373000 8.0166350 7.8353230 11.411870
33 33.333000 33.333000 33.333000 9.1694980 9.0008940 13.035740
34 35.294000 35.294000 35.294000 10.380970 10.127770 14.869390
35 37.255000 37.255000 37.255000 11.832820 11.521250 17.061000
36 39.216000 39.216000 39.216000 13.231630 12.886360 18.996950
37 41.176000 41.176000 41.176000 14.809000 14.447280 20.899190
38 43.137000 43.137000 43.137000 16.349860 15.897580 23.391020
39 45.098000 45.098000 45.098000 17.906040 17.418510 25.595770
40 47.059000 47.059000 47.059000 19.566180 19.055670 28.025160
41 49.020000 49.020000 49.020000 21.291550 20.756040 30.513670
42 50.980000 50.980000 50.980000 23.212710 22.700650 33.210060
43 52.941000 52.941000 52.941000 25.117630 24.616990 36.178680
44 54.902000 54.902000 54.902000 27.168050 26.633330 38.917460
45 56.863000 56.863000 56.863000 29.312450 28.729410 41.699600
46 58.824000 58.824000 58.824000 31.695850 30.803670 45.336640
47 60.784000 60.784000 60.784000 34.104020 33.129590 48.687440
48 62.745000 62.745000 62.745000 36.641440 35.607020 52.353090
49 64.706000 64.706000 64.706000 38.795650 37.801140 55.573740
50 66.667000 66.667000 66.667000 41.457750 40.338630 59.327150
51 68.627000 68.627000 68.627000 44.360980 43.294400 63.545170
52 70.588000 70.588000 70.588000 46.924170 45.660680 67.013060
53 72.549000 72.549000 72.549000 50.042860 48.726520 71.452770
54 76.471000 76.471000 76.471000 56.466040 55.073900 80.827260
55 78.431000 78.431000 78.431000 59.712700 58.079800 85.656140
56 80.392000 80.392000 80.392000 63.153380 61.612900 90.301780
57 82.353000 82.353000 82.353000 66.559310 64.948810 95.098250
58 84.314000 84.314000 84.314000 70.156770 68.371790 100.08670
59 86.275000 86.275000 86.275000 74.170430 72.301200 105.77740
60 88.235000 88.235000 88.235000 77.818340 75.814790 111.41480
61 90.196000 90.196000 90.196000 81.778330 79.775470 116.62360
62 92.157000 92.157000 92.157000 85.934960 83.861070 122.47780
63 94.118000 94.118000 94.118000 89.853650 87.645810 128.51770
64 96.078000 96.078000 96.078000 94.482490 92.256720 134.51380
65 98.039000 98.039000 98.039000 98.457810 95.997440 140.91460
66 25.000000 25.000000 0.0000000 3.6044500 4.2754080 0.3545810
67 50.000000 25.000000 0.0000000 12.017640 8.1275870 0.3546480
68 75.000000 25.000000 0.0000000 27.093630 15.056810 0.3655700
69 100.00000 25.000000 0.0000000 50.437860 25.737320 0.3948470
70 100.00000 50.000000 0.0000000 55.156080 37.596970 1.2944060
71 50.000000 50.000000 0.0000000 16.648290 19.925430 1.2410110
72 75.000000 50.000000 0.0000000 31.811860 26.886140 1.2498390
73 25.000000 50.000000 0.0000000 8.1245130 15.976410 1.2281410
74 25.000000 75.000000 0.0000000 16.036090 36.958720 2.8391700
75 50.000000 75.000000 0.0000000 24.513610 40.825510 2.8376470
76 75.000000 75.000000 0.0000000 40.045070 47.911190 2.8376280
77 100.00000 75.000000 0.0000000 63.482890 58.641070 2.8798690
78 25.000000 100.00000 0.0000000 28.156960 69.053730 5.2679170
79 50.000000 100.00000 0.0000000 36.868530 72.992410 5.2758300
80 75.000000 100.00000 0.0000000 52.620870 80.296010 5.3015720
81 100.00000 100.00000 0.0000000 76.111970 90.926000 5.3116100
82 100.00000 100.00000 25.000000 77.330700 91.394120 11.976310
83 50.000000 0.0000000 25.000000 12.043240 5.4164360 6.7293200
84 50.000000 25.000000 50.000000 17.749060 10.018150 31.191790
85 0.0000000 25.000000 0.0000000 1.3056210 3.2156720 0.3477540
86 0.0000000 25.000000 25.000000 2.5356340 3.6285150 6.9665030
87 25.490000 25.490000 25.490000 4.9877990 4.8921640 7.1065370
88 50.000000 25.000000 25.000000 13.264800 8.5454760 6.9578700
89 75.000000 25.000000 25.000000 28.329440 15.475380 6.9842020
90 0.0000000 50.000000 0.0000000 5.8258350 14.934880 1.2365280
91 0.0000000 50.000000 25.000000 7.0542470 15.353620 7.7949140
92 25.000000 50.000000 25.000000 9.3710640 16.412420 7.8163780
93 50.000000 50.000000 25.000000 17.895750 20.349420 7.8593720
94 75.000000 50.000000 25.000000 33.040730 27.298860 7.8232870
95 0.0000000 75.000000 0.0000000 13.714170 35.870000 2.8327720
96 0.0000000 75.000000 25.000000 14.972530 36.329630 9.4359510
97 25.000000 75.000000 25.000000 17.289500 37.376330 9.4573380
98 50.000000 75.000000 25.000000 25.760460 41.237300 9.4257310
99 75.000000 75.000000 25.000000 41.247200 48.271220 9.4870100
100 0.0000000 100.00000 0.0000000 25.694800 67.924320 5.2649320
101 0.0000000 100.00000 25.000000 26.954530 68.365910 11.913300
102 25.000000 100.00000 25.000000 29.416460 69.513490 11.916400
103 50.000000 100.00000 25.000000 38.115770 73.434560 11.894310
104 75.000000 100.00000 25.000000 53.799060 80.602710 11.905930
105 0.0000000 0.0000000 50.000000 5.7913270 1.9723530 30.926730
106 25.000000 0.0000000 50.000000 8.1399240 3.0479880 31.053230
107 50.000000 0.0000000 50.000000 16.509820 6.8961360 30.963740
108 75.000000 0.0000000 50.000000 31.638480 13.834560 30.973350
109 100.00000 0.0000000 50.000000 54.751090 24.431300 31.083710
110 100.00000 0.0000000 75.000000 62.869300 27.094690 74.555550
111 100.00000 25.000000 75.000000 64.147940 30.256720 74.737480
112 75.000000 0.0000000 25.000000 26.960480 12.257330 6.6834150
113 75.000000 25.000000 50.000000 32.882980 16.974370 31.186250
114 100.00000 25.000000 50.000000 56.232160 27.685720 31.427120
115 25.000000 25.000000 50.000000 9.3432680 6.1658070 31.251970
116 25.000000 50.000000 50.000000 13.926200 18.026800 32.139950
117 75.000000 50.000000 50.000000 37.492970 28.833510 31.982860
118 100.00000 50.000000 50.000000 60.905940 39.541230 32.191820
119 100.00000 50.000000 75.000000 69.006850 42.253190 75.467970
120 25.000000 75.000000 50.000000 21.814240 38.895190 33.690480
121 50.000000 75.000000 50.000000 30.284740 42.731860 33.628520
122 75.000000 75.000000 50.000000 45.838300 49.914060 33.855150
123 100.00000 75.000000 50.000000 69.073160 60.502980 33.690300
124 100.00000 75.000000 75.000000 77.275740 63.330930 77.100480
125 25.000000 100.00000 50.000000 33.899960 71.016400 36.135400
126 50.000000 100.00000 50.000000 42.562380 74.921050 36.038630
127 75.000000 100.00000 50.000000 58.245440 82.137690 36.065660
128 100.00000 100.00000 50.000000 81.679600 92.843870 36.183400
129 25.000000 0.0000000 75.000000 16.142370 5.6624990 74.331370
130 50.000000 0.0000000 75.000000 24.485590 9.4934140 74.106480
131 75.000000 0.0000000 75.000000 39.591920 16.433250 74.162000
132 75.000000 25.000000 75.000000 40.871860 19.583280 74.389160
133 75.000000 50.000000 100.00000 58.109620 35.738300 142.34790
134 25.000000 25.000000 75.000000 17.358210 8.7797500 74.559990
135 25.000000 50.000000 100.00000 34.421440 24.853670 142.53790
136 0.0000000 25.000000 50.000000 7.0261470 5.1009050 31.215370
137 0.0000000 25.000000 75.000000 15.038730 7.7206660 74.432830
138 0.0000000 50.000000 75.000000 19.628210 19.617790 75.366190
139 25.000000 50.000000 75.000000 21.950740 20.688390 75.387570
140 50.000000 50.000000 75.000000 30.360200 24.534110 75.236600
141 75.000000 50.000000 75.000000 45.708210 31.576950 75.618850
142 74.510000 74.510000 74.510000 53.174720 51.908020 76.240350
143 0.0000000 75.000000 75.000000 27.479660 40.475850 76.857160
144 25.000000 75.000000 75.000000 29.795640 41.510310 76.833170
145 50.000000 75.000000 75.000000 38.265160 45.365070 76.741130
146 0.0000000 75.000000 50.000000 19.449710 37.808570 33.624760
147 0.0000000 100.00000 50.000000 31.413800 69.839710 36.087430
148 0.0000000 100.00000 75.000000 39.407320 72.454230 79.244920
149 25.000000 100.00000 75.000000 41.875650 73.650050 79.293470
150 50.000000 100.00000 75.000000 50.728600 77.750820 79.404440
151 75.000000 100.00000 75.000000 66.282930 84.872460 79.630680
152 75.000000 100.00000 100.00000 78.645170 89.077780 146.22500
153 25.000000 0.0000000 100.00000 28.537380 9.7644090 141.24150
154 50.000000 0.0000000 100.00000 36.969780 13.640040 141.31680
155 0.0000000 0.0000000 75.000000 13.794530 4.5869430 74.235060
156 0.0000000 0.0000000 100.00000 26.169810 8.6774720 141.05500
157 0.0000000 25.000000 100.00000 27.389920 11.800300 141.22310
158 25.000000 25.000000 100.00000 29.768700 12.887470 141.62090
159 50.000000 25.000000 100.00000 38.198650 16.774970 141.60560
160 75.000000 25.000000 100.00000 53.203310 23.659460 141.55770
161 100.00000 25.000000 100.00000 76.297850 34.285580 141.20030
162 100.00000 50.000000 100.00000 81.147610 46.277850 142.26340
163 50.000000 25.000000 75.000000 25.783440 12.667700 74.590180
164 50.000000 50.000000 100.00000 42.799720 28.694760 142.31210
165 0.0000000 50.000000 50.000000 11.573560 16.927420 32.073850
166 0.0000000 50.000000 100.00000 32.009280 23.744380 142.20130
167 0.0000000 75.000000 100.00000 39.855780 44.590720 143.72250
168 25.000000 75.000000 100.00000 42.192110 45.648750 143.81900
169 50.000000 75.000000 100.00000 50.576640 49.428920 143.57770
170 75.000000 75.000000 100.00000 66.036530 56.639640 143.59540
171 100.00000 75.000000 100.00000 89.541800 67.397520 143.99870
172 0.0000000 100.00000 100.00000 51.840980 76.615200 146.32060
173 25.000000 100.00000 100.00000 54.305040 77.816640 146.20310
174 50.000000 100.00000 100.00000 63.121250 81.919190 146.25460
175 100.00000 100.00000 100.00000 102.35820 99.909490 146.75930
END_DATA
CAL    

DESCRIPTOR "Argyll Device Calibration State"
ORIGINATOR "Argyll dispread"
CREATED "Fri Jul 24 16:20:07 2026"
DEVICE_CLASS "DISPLAY"
COLOR_REP "RGB"

BEGIN_ARGYLL_DISPCAL_ARGS
-v2 -ql -t -g2.2 -f1.0 -k0.0 -A4.0 -d1 -c1 -yb -P0.506804317222,0.544510385757,1.0 -N
END_ARGYLL_DISPCAL_ARGS


NUMBER_OF_FIELDS 4
BEGIN_DATA_FORMAT
RGB_I RGB_R RGB_G RGB_B
END_DATA_FORMAT

NUMBER_OF_SETS 256
BEGIN_DATA
0.00000000 0.00000000 0.00000000 0.00000000
0.00392157 0.00173713 0.00178568 0.00175811
0.00784314 0.00353868 0.00363606 0.00358158
0.01176470 0.00540828 0.00555471 0.00547412
0.01568630 0.00734988 0.00754548 0.00743972
0.01960780 0.00936772 0.00961252 0.00948272
0.02352940 0.01146640 0.01176030 0.01160780
0.02745100 0.01365080 0.01399360 0.01381990
0.03137250 0.01592630 0.01631780 0.01612460
0.03529410 0.01829880 0.01873830 0.01852780
0.03921570 0.02077460 0.02126140 0.02103590
0.04313730 0.02336060 0.02389370 0.02365600
0.04705880 0.02606430 0.02664250 0.02639570
0.05098040 0.02889390 0.02951560 0.02926340
0.05490200 0.03185850 0.03252180 0.03226840
0.05882350 0.03496740 0.03566950 0.03541980
0.06274510 0.03822550 0.03896360 0.03872210
0.06666670 0.04163470 0.04240620 0.04217640
0.07058820 0.04519770 0.04599680 0.04578170
0.07450980 0.04891920 0.04973480 0.04953800
0.07843140 0.05280260 0.05361950 0.05344640
0.08235290 0.05684530 0.05764870 0.05750380
0.08627450 0.06103720 0.06181780 0.06170100
0.09019610 0.06536350 0.06611790 0.06602350
0.09411760 0.06980890 0.07053880 0.07045660
0.09803920 0.07436660 0.07507150 0.07498880
0.10196100 0.07903200 0.07970760 0.07961550
0.10588200 0.08379800 0.08443710 0.08433160
0.10980400 0.08865820 0.08925310 0.08913220
0.11372500 0.09359960 0.09414840 0.09401000
0.11764700 0.09860040 0.09910560 0.09895200
0.12156900 0.10365200 0.10412100 0.10395400
0.12549000 0.10872100 0.10916200 0.10898200
0.12941200 0.11379800 0.11422100 0.11402800
0.13333300 0.11886700 0.11927700 0.11907400
0.13725500 0.12390900 0.12431100 0.12410400
0.14117600 0.12893700 0.12932600 0.12912100
0.14509800 0.13393000 0.13429400 0.13410300
0.14902000 0.13888200 0.13921200 0.13904900
0.15294100 0.14380900 0.14408700 0.14397100
0.15686300 0.14873300 0.14894000 0.14889100
0.16078400 0.15362900 0.15374300 0.15377700
0.16470600 0.15850200 0.15850900 0.15863700
0.16862700 0.16335800 0.16325000 0.16348100
0.17254900 0.16820000 0.16797500 0.16832300
0.17647100 0.17303800 0.17270600 0.17317400
0.18039200 0.17784300 0.17742200 0.17801000
0.18431400 0.18258500 0.18211000 0.18280800
0.18823500 0.18728700 0.18679600 0.18758700
0.19215700 0.19194300 0.19148000 0.19234000
0.19607800 0.19653900 0.19615200 0.19705100
0.20000000 0.20108200 0.20081700 0.20172800
0.20392200 0.20560200 0.20550000 0.20639100
0.20784300 0.21009000 0.21018000 0.21101600
0.21176500 0.21453500 0.21484700 0.21559500
0.21568600 0.21893800 0.21949200 0.22012100
0.21960800 0.22330100 0.22411700 0.22460400
0.22352900 0.22767400 0.22876200 0.22908700
0.22745100 0.23206300 0.23342200 0.23356300
0.23137300 0.23645600 0.23807600 0.23801900
0.23529400 0.24085500 0.24272700 0.24246300
0.23921600 0.24526200 0.24737600 0.24690200
0.24313700 0.24968400 0.25204800 0.25135600
0.24705900 0.25416000 0.25674500 0.25583600
0.25098000 0.25866200 0.26143200 0.26031000
0.25490200 0.26317500 0.26610400 0.26477000
0.25882400 0.26769200 0.27077100 0.26922200
0.26274500 0.27222600 0.27544400 0.27368700
0.26666700 0.27677200 0.28009900 0.27815200
0.27058800 0.28130200 0.28471900 0.28259700
0.27451000 0.28581500 0.28934600 0.28703500
0.27843100 0.29035800 0.29401200 0.29151200
0.28235300 0.29494800 0.29870400 0.29603100
0.28627500 0.29956700 0.30341200 0.30057400
0.29019600 0.30420300 0.30810200 0.30512700
0.29411800 0.30882300 0.31278600 0.30966200
0.29803900 0.31344600 0.31746700 0.31420000
0.30196100 0.31806100 0.32214100 0.31873200
0.30588200 0.32267100 0.32680600 0.32325600
0.30980400 0.32727500 0.33146500 0.32777400
0.31372500 0.33187500 0.33614600 0.33229000
0.31764700 0.33650400 0.34084000 0.33683600
0.32156900 0.34114000 0.34551300 0.34138600
0.32549000 0.34575000 0.35016000 0.34591700
0.32941200 0.35033700 0.35478300 0.35042700
0.33333300 0.35489700 0.35938600 0.35491700
0.33725500 0.35944300 0.36395700 0.35939700
0.34117600 0.36396200 0.36851400 0.36385600
0.34509800 0.36847600 0.37306700 0.36830700
0.34902000 0.37298800 0.37761300 0.37275300
0.35294100 0.37749700 0.38212800 0.37719400
0.35686300 0.38198400 0.38660200 0.38161400
0.36078400 0.38643100 0.39101900 0.38599800
0.36470600 0.39082500 0.39536200 0.39033200
0.36862700 0.39514600 0.39962400 0.39459900
0.37254900 0.39938800 0.40387000 0.39878400
0.37647100 0.40361300 0.40814400 0.40293900
0.38039200 0.40786700 0.41244100 0.40713000
0.38431400 0.41214700 0.41674600 0.41135800
0.38823500 0.41643800 0.42104600 0.41560900
0.39215700 0.42072600 0.42533100 0.41986500
0.39607800 0.42500300 0.42960000 0.42411200
0.40000000 0.42927300 0.43385500 0.42835000
0.40392200 0.43353800 0.43807700 0.43258300
0.40784300 0.43777500 0.44226100 0.43678900
0.41176500 0.44197200 0.44640500 0.44096100
0.41568600 0.44612800 0.45054600 0.44508500
0.41960800 0.45028900 0.45467900 0.44919800
0.42352900 0.45445300 0.45879200 0.45330700
0.42745100 0.45860200 0.46286700 0.45740100
0.43137300 0.46271800 0.46692400 0.46146600
0.43529400 0.46681700 0.47095900 0.46551100
0.43921600 0.47089600 0.47497200 0.46954200
0.44313700 0.47495700 0.47896300 0.47355000
0.44705900 0.47900200 0.48293300 0.47754100
0.45098000 0.48303100 0.48688300 0.48151300
0.45490200 0.48704400 0.49081400 0.48546600
0.45882400 0.49104200 0.49472500 0.48940400
0.46274500 0.49502700 0.49861800 0.49332500
0.46666700 0.49899800 0.50252400 0.49723000
0.47058800 0.50299400 0.50644000 0.50113600
0.47451000 0.50699600 0.51035200 0.50506200
0.47843100 0.51099300 0.51425600 0.50898600
0.48235300 0.51498000 0.51814900 0.51290100
0.48627500 0.51895500 0.52203200 0.51680800
0.49019600 0.52291900 0.52590400 0.52070400
0.49411800 0.52687000 0.52976600 0.52458800
0.49803900 0.53081100 0.53361400 0.52846200
0.50196100 0.53473500 0.53745600 0.53232600
0.50588200 0.53865400 0.54129400 0.53617700
0.50980400 0.54256200 0.54511300 0.54003000
0.51372500 0.54645000 0.54892500 0.54387000
0.51764700 0.55034000 0.55274400 0.54770000
0.52156900 0.55423500 0.55656800 0.55153800
0.52549000 0.55813300 0.56038300 0.55537800
0.52941200 0.56201500 0.56417900 0.55921600
0.53333300 0.56587400 0.56795000 0.56303800
0.53725500 0.56969400 0.57168800 0.56684000
0.54117600 0.57348900 0.57542800 0.57060800
0.54509800 0.57729800 0.57918600 0.57436500
0.54902000 0.58111900 0.58295600 0.57814400
0.55294100 0.58494100 0.58672700 0.58193700
0.55686300 0.58875000 0.59048900 0.58573600
0.56078400 0.59254900 0.59424600 0.58952500
0.56470600 0.59634500 0.59799900 0.59331300
0.56862700 0.60014100 0.60175200 0.59710100
0.57254900 0.60394700 0.60550300 0.60089100
0.57647100 0.60775800 0.60925100 0.60468200
0.58039200 0.61157200 0.61299500 0.60846800
0.58431400 0.61538100 0.61673200 0.61224600
0.58823500 0.61919300 0.62048100 0.61601300
0.59215700 0.62301700 0.62424400 0.61978000
0.59607800 0.62685300 0.62801500 0.62355600
0.60000000 0.63068300 0.63177700 0.62733900
0.60392200 0.63450100 0.63552800 0.63111300
0.60784300 0.63830700 0.63926100 0.63487400
0.61176500 0.64208000 0.64296600 0.63861800
0.61568600 0.64581900 0.64663900 0.64233600
0.61960800 0.64951200 0.65026900 0.64602800
0.62352900 0.65314500 0.65384700 0.64968500
0.62745100 0.65671200 0.65736400 0.65329400
0.63137300 0.66020800 0.66081700 0.65684400
0.63529400 0.66363400 0.66420900 0.66032900
0.63921600 0.66700300 0.66756400 0.66375200
0.64313700 0.67039400 0.67095500 0.66712900
0.64705900 0.67384100 0.67440400 0.67053800
0.65098000 0.67734800 0.67791200 0.67401100
0.65490200 0.68091300 0.68148000 0.67754700
0.65882400 0.68453300 0.68509900 0.68114800
0.66274500 0.68819900 0.68876200 0.68480400
0.66666700 0.69189800 0.69246000 0.68850500
0.67058800 0.69562400 0.69618300 0.69224100
0.67451000 0.69937000 0.69992800 0.69600400
0.67843100 0.70313000 0.70368700 0.69979000
0.68235300 0.70688100 0.70744200 0.70359100
0.68627500 0.71063000 0.71119700 0.70738900
0.69019600 0.71437800 0.71495000 0.71119500
0.69411800 0.71812500 0.71870100 0.71500700
0.69803900 0.72185900 0.72244000 0.71882400
0.70196100 0.72557700 0.72616500 0.72263400
0.70588200 0.72927300 0.72988300 0.72643700
0.70980400 0.73296700 0.73361100 0.73023600
0.71372500 0.73665400 0.73734200 0.73404500
0.71764700 0.74033200 0.74107200 0.73785000
0.72156900 0.74400400 0.74480200 0.74165000
0.72549000 0.74767500 0.74853200 0.74544400
0.72941200 0.75134800 0.75226700 0.74923200
0.73333300 0.75503000 0.75600200 0.75302100
0.73725500 0.75871600 0.75973100 0.75680500
0.74117600 0.76240500 0.76345100 0.76057800
0.74509800 0.76609900 0.76716300 0.76433600
0.74902000 0.76978700 0.77085900 0.76807200
0.75294100 0.77347700 0.77455500 0.77178000
0.75686300 0.77717500 0.77825100 0.77547400
0.76078400 0.78087400 0.78193600 0.77915400
0.76470600 0.78455800 0.78559900 0.78280600
0.76862700 0.78822500 0.78923800 0.78642600
0.77254900 0.79186400 0.79284400 0.79001300
0.77647100 0.79546600 0.79640800 0.79355800
0.78039200 0.79902600 0.79993000 0.79705600
0.78431400 0.80257100 0.80344900 0.80050800
0.78823500 0.80615000 0.80700200 0.80396900
0.79215700 0.80976500 0.81058800 0.80746900
0.79607800 0.81341000 0.81419800 0.81100600
0.80000000 0.81707300 0.81782400 0.81457200
0.80392200 0.82074800 0.82146100 0.81815900
0.80784300 0.82441800 0.82509600 0.82176100
0.81176500 0.82808800 0.82873200 0.82536900
0.81568600 0.83176300 0.83237000 0.82899100
0.81960800 0.83544400 0.83601100 0.83262400
0.82352900 0.83911700 0.83965000 0.83626700
0.82745100 0.84277800 0.84328500 0.83991100
0.83137300 0.84643300 0.84691700 0.84355200
0.83529400 0.85007500 0.85053600 0.84718800
0.83921600 0.85369600 0.85413300 0.85081200
0.84313700 0.85728900 0.85770400 0.85441500
0.84705900 0.86088400 0.86128400 0.85799600
0.85098000 0.86450200 0.86488600 0.86159300
0.85490200 0.86813700 0.86850300 0.86521600
0.85882400 0.87178000 0.87212700 0.86885800
0.86274500 0.87543200 0.87576000 0.87250900
0.86666700 0.87908200 0.87938800 0.87617200
0.87058800 0.88271900 0.88300400 0.87983200
0.87451000 0.88633700 0.88660500 0.88348800
0.87843100 0.88992900 0.89018800 0.88713200
0.88235300 0.89353000 0.89378000 0.89076400
0.88627500 0.89714700 0.89738500 0.89441600
0.89019600 0.90077200 0.90099800 0.89808600
0.89411800 0.90439000 0.90460300 0.90176800
0.89803900 0.90798800 0.90819000 0.90544200
0.90196100 0.91157100 0.91176400 0.90910300
0.90588200 0.91515700 0.91534500 0.91276300
0.90980400 0.91874500 0.91892600 0.91643100
0.91372500 0.92232100 0.92249300 0.92009500
0.91764700 0.92588700 0.92604900 0.92374000
0.92156900 0.92945500 0.92960700 0.92737900
0.92549000 0.93301500 0.93315400 0.93101300
0.92941200 0.93656900 0.93669600 0.93463500
0.93333300 0.94012400 0.94023900 0.93826300
0.93725500 0.94367200 0.94377800 0.94189200
0.94117600 0.94722000 0.94731600 0.94552600
0.94509800 0.95076400 0.95085300 0.94916300
0.94902000 0.95430500 0.95438700 0.95280200
0.95294100 0.95784400 0.95791700 0.95644000
0.95686300 0.96138000 0.96144500 0.96007600
0.96078400 0.96491400 0.96497100 0.96371500
0.96470600 0.96844400 0.96849500 0.96735600
0.96862700 0.97197000 0.97201400 0.97099600
0.97254900 0.97549100 0.97552900 0.97463200
0.97647100 0.97900800 0.97903900 0.97826600
0.98039200 0.98251900 0.98254400 0.98189600
0.98431400 0.98602500 0.98604400 0.98552300
