displaycal/Kuycon G27P/G27P #1 2026-07-24 16-10 2.2 F-S XYZLUT+MTX.cal
CAL    

DESCRIPTOR "Argyll Device Calibration Curves"
ORIGINATOR "Argyll dispcal"
CREATED "Fri Jul 24 16:20:07 2026"
DEVICE_CLASS "DISPLAY"
COLOR_REP "RGB"
VIDEO_LUT_CALIBRATION_POSSIBLE "YES"
TV_OUTPUT_ENCODING "NO"
DEVICE_TYPE "b"
NATIVE_TARGET_WHITE ""
TARGET_WHITE_XYZ "236.400505 230.449224 337.228440"
TARGET_GAMMA "2.2"
DEGREE_OF_BLACK_OUTPUT_OFFSET "1.0"
BLACK_POINT_CORRECTION "0.0"
BLACK_NEUTRAL_BLEND_RATE "4.0"
BLACK_POINT_HACK "YES"
QUALITY "low"

BEGIN_ARGYLL_DISPCAL_ARGS
-v2 -d1 -c1 -yb -P0.506804317222,0.544510385757,1.0 -N -ql -t -g2.2 -f1.0 -k0.0 -A4.0 -b
END_ARGYLL_DISPCAL_ARGS


NUMBER_OF_FIELDS 4
BEGIN_DATA_FORMAT
RGB_I RGB_R RGB_G RGB_B
END_DATA_FORMAT

NUMBER_OF_SETS 256
BEGIN_DATA
0.00000000 0.00000000 0.00000000 0.00000000
0.00392157 0.00173713 0.00178568 0.00175811
0.00784314 0.00353868 0.00363606 0.00358158
0.01176470 0.00540828 0.00555471 0.00547412
0.01568630 0.00734988 0.00754548 0.00743972
0.01960780 0.00936772 0.00961252 0.00948272
0.02352940 0.01146640 0.01176030 0.01160780
0.02745100 0.01365080 0.01399360 0.01381990
0.03137250 0.01592630 0.01631780 0.01612460
0.03529410 0.01829880 0.01873830 0.01852780
0.03921570 0.02077460 0.02126140 0.02103590
0.04313730 0.02336060 0.02389370 0.02365600
0.04705880 0.02606430 0.02664250 0.02639570
0.05098040 0.02889390 0.02951560 0.02926340
0.05490200 0.03185850 0.03252180 0.03226840
0.05882350 0.03496740 0.03566950 0.03541980
0.06274510 0.03822550 0.03896360 0.03872210
0.06666670 0.04163470 0.04240620 0.04217640
0.07058820 0.04519770 0.04599680 0.04578170
0.07450980 0.04891920 0.04973480 0.04953800
0.07843140 0.05280260 0.05361950 0.05344640
0.08235290 0.05684530 0.05764870 0.05750380
0.08627450 0.06103720 0.06181780 0.06170100
0.09019610 0.06536350 0.06611790 0.06602350
0.09411760 0.06980890 0.07053880 0.07045660
0.09803920 0.07436660 0.07507150 0.07498880
0.10196100 0.07903200 0.07970760 0.07961550
0.10588200 0.08379800 0.08443710 0.08433160
0.10980400 0.08865820 0.08925310 0.08913220
0.11372500 0.09359960 0.09414840 0.09401000
0.11764700 0.09860040 0.09910560 0.09895200
0.12156900 0.10365200 0.10412100 0.10395400
0.12549000 0.10872100 0.10916200 0.10898200
0.12941200 0.11379800 0.11422100 0.11402800
0.13333300 0.11886700 0.11927700 0.11907400
0.13725500 0.12390900 0.12431100 0.12410400
0.14117600 0.12893700 0.12932600 0.12912100
0.14509800 0.13393000 0.13429400 0.13410300
0.14902000 0.13888200 0.13921200 0.13904900
0.15294100 0.14380900 0.14408700 0.14397100
0.15686300 0.14873300 0.14894000 0.14889100
0.16078400 0.15362900 0.15374300 0.15377700
0.16470600 0.15850200 0.15850900 0.15863700
0.16862700 0.16335800 0.16325000 0.16348100
0.17254900 0.16820000 0.16797500 0.16832300
0.17647100 0.17303800 0.17270600 0.17317400
0.18039200 0.17784300 0.17742200 0.17801000
0.18431400 0.18258500 0.18211000 0.18280800
0.18823500 0.18728700 0.18679600 0.18758700
0.19215700 0.19194300 0.19148000 0.19234000
0.19607800 0.19653900 0.19615200 0.19705100
0.20000000 0.20108200 0.20081700 0.20172800
0.20392200 0.20560200 0.20550000 0.20639100
0.20784300 0.21009000 0.21018000 0.21101600
0.21176500 0.21453500 0.21484700 0.21559500
0.21568600 0.21893800 0.21949200 0.22012100
0.21960800 0.22330100 0.22411700 0.22460400
0.22352900 0.22767400 0.22876200 0.22908700
0.22745100 0.23206300 0.23342200 0.23356300
0.23137300 0.23645600 0.23807600 0.23801900
0.23529400 0.24085500 0.24272700 0.24246300
0.23921600 0.24526200 0.24737600 0.24690200
0.24313700 0.24968400 0.25204800 0.25135600
0.24705900 0.25416000 0.25674500 0.25583600
0.25098000 0.25866200 0.26143200 0.26031000
0.25490200 0.26317500 0.26610400 0.26477000
0.25882400 0.26769200 0.27077100 0.26922200
0.26274500 0.27222600 0.27544400 0.27368700
0.26666700 0.27677200 0.28009900 0.27815200
0.27058800 0.28130200 0.28471900 0.28259700
0.27451000 0.28581500 0.28934600 0.28703500
0.27843100 0.29035800 0.29401200 0.29151200
0.28235300 0.29494800 0.29870400 0.29603100
0.28627500 0.29956700 0.30341200 0.30057400
0.29019600 0.30420300 0.30810200 0.30512700
0.29411800 0.30882300 0.31278600 0.30966200
0.29803900 0.31344600 0.31746700 0.31420000
0.30196100 0.31806100 0.32214100 0.31873200
0.30588200 0.32267100 0.32680600 0.32325600
0.30980400 0.32727500 0.33146500 0.32777400
0.31372500 0.33187500 0.33614600 0.33229000
0.31764700 0.33650400 0.34084000 0.33683600
0.32156900 0.34114000 0.34551300 0.34138600
0.32549000 0.34575000 0.35016000 0.34591700
0.32941200 0.35033700 0.35478300 0.35042700
0.33333300 0.35489700 0.35938600 0.35491700
0.33725500 0.35944300 0.36395700 0.35939700
0.34117600 0.36396200 0.36851400 0.36385600
0.34509800 0.36847600 0.37306700 0.36830700
0.34902000 0.37298800 0.37761300 0.37275300
0.35294100 0.37749700 0.38212800 0.37719400
0.35686300 0.38198400 0.38660200 0.38161400
0.36078400 0.38643100 0.39101900 0.38599800
0.36470600 0.39082500 0.39536200 0.39033200
0.36862700 0.39514600 0.39962400 0.39459900
0.37254900 0.39938800 0.40387000 0.39878400
0.37647100 0.40361300 0.40814400 0.40293900
0.38039200 0.40786700 0.41244100 0.40713000
0.38431400 0.41214700 0.41674600 0.41135800
0.38823500 0.41643800 0.42104600 0.41560900
0.39215700 0.42072600 0.42533100 0.41986500
0.39607800 0.42500300 0.42960000 0.42411200
0.40000000 0.42927300 0.43385500 0.42835000
0.40392200 0.43353800 0.43807700 0.43258300
0.40784300 0.43777500 0.44226100 0.43678900
0.41176500 0.44197200 0.44640500 0.44096100
0.41568600 0.44612800 0.45054600 0.44508500
0.41960800 0.45028900 0.45467900 0.44919800
0.42352900 0.45445300 0.45879200 0.45330700
0.42745100 0.45860200 0.46286700 0.45740100
0.43137300 0.46271800 0.46692400 0.46146600
0.43529400 0.46681700 0.47095900 0.46551100
0.43921600 0.47089600 0.47497200 0.46954200
0.44313700 0.47495700 0.47896300 0.47355000
0.44705900 0.47900200 0.48293300 0.47754100
0.45098000 0.48303100 0.48688300 0.48151300
0.45490200 0.48704400 0.49081400 0.48546600
0.45882400 0.49104200 0.49472500 0.48940400
0.46274500 0.49502700 0.49861800 0.49332500
0.46666700 0.49899800 0.50252400 0.49723000
0.47058800 0.50299400 0.50644000 0.50113600
0.47451000 0.50699600 0.51035200 0.50506200
0.47843100 0.51099300 0.51425600 0.50898600
0.48235300 0.51498000 0.51814900 0.51290100
0.48627500 0.51895500 0.52203200 0.51680800
0.49019600 0.52291900 0.52590400 0.52070400
0.49411800 0.52687000 0.52976600 0.52458800
0.49803900 0.53081100 0.53361400 0.52846200
0.50196100 0.53473500 0.53745600 0.53232600
0.50588200 0.53865400 0.54129400 0.53617700
0.50980400 0.54256200 0.54511300 0.54003000
0.51372500 0.54645000 0.54892500 0.54387000
0.51764700 0.55034000 0.55274400 0.54770000
0.52156900 0.55423500 0.55656800 0.55153800
0.52549000 0.55813300 0.56038300 0.55537800
0.52941200 0.56201500 0.56417900 0.55921600
0.53333300 0.56587400 0.56795000 0.56303800
0.53725500 0.56969400 0.57168800 0.56684000
0.54117600 0.57348900 0.57542800 0.57060800
0.54509800 0.57729800 0.57918600 0.57436500
0.54902000 0.58111900 0.58295600 0.57814400
0.55294100 0.58494100 0.58672700 0.58193700
0.55686300 0.58875000 0.59048900 0.58573600
0.56078400 0.59254900 0.59424600 0.58952500
0.56470600 0.59634500 0.59799900 0.59331300
0.56862700 0.60014100 0.60175200 0.59710100
0.57254900 0.60394700 0.60550300 0.60089100
0.57647100 0.60775800 0.60925100 0.60468200
0.58039200 0.61157200 0.61299500 0.60846800
0.58431400 0.61538100 0.61673200 0.61224600
0.58823500 0.61919300 0.62048100 0.61601300
0.59215700 0.62301700 0.62424400 0.61978000
0.59607800 0.62685300 0.62801500 0.62355600
0.60000000 0.63068300 0.63177700 0.62733900
0.60392200 0.63450100 0.63552800 0.63111300
0.60784300 0.63830700 0.63926100 0.63487400
0.61176500 0.64208000 0.64296600 0.63861800
0.61568600 0.64581900 0.64663900 0.64233600
0.61960800 0.64951200 0.65026900 0.64602800
0.62352900 0.65314500 0.65384700 0.64968500
0.62745100 0.65671200 0.65736400 0.65329400
0.63137300 0.66020800 0.66081700 0.65684400
0.63529400 0.66363400 0.66420900 0.66032900
0.63921600 0.66700300 0.66756400 0.66375200
0.64313700 0.67039400 0.67095500 0.66712900
0.64705900 0.67384100 0.67440400 0.67053800
0.65098000 0.67734800 0.67791200 0.67401100
0.65490200 0.68091300 0.68148000 0.67754700
0.65882400 0.68453300 0.68509900 0.68114800
0.66274500 0.68819900 0.68876200 0.68480400
0.66666700 0.69189800 0.69246000 0.68850500
0.67058800 0.69562400 0.69618300 0.69224100
0.67451000 0.69937000 0.69992800 0.69600400
0.67843100 0.70313000 0.70368700 0.69979000
0.68235300 0.70688100 0.70744200 0.70359100
0.68627500 0.71063000 0.71119700 0.70738900
0.69019600 0.71437800 0.71495000 0.71119500
0.69411800 0.71812500 0.71870100 0.71500700
0.69803900 0.72185900 0.72244000 0.71882400
0.70196100 0.72557700 0.72616500 0.72263400
0.70588200 0.72927300 0.72988300 0.72643700
0.70980400 0.73296700 0.73361100 0.73023600
0.71372500 0.73665400 0.73734200 0.73404500
0.71764700 0.74033200 0.74107200 0.73785000
0.72156900 0.74400400 0.74480200 0.74165000
0.72549000 0.74767500 0.74853200 0.74544400
0.72941200 0.75134800 0.75226700 0.74923200
0.73333300 0.75503000 0.75600200 0.75302100
0.73725500 0.75871600 0.75973100 0.75680500
0.74117600 0.76240500 0.76345100 0.76057800
0.74509800 0.76609900 0.76716300 0.76433600
0.74902000 0.76978700 0.77085900 0.76807200
0.75294100 0.77347700 0.77455500 0.77178000
0.75686300 0.77717500 0.77825100 0.77547400
0.76078400 0.78087400 0.78193600 0.77915400
0.76470600 0.78455800 0.78559900 0.78280600
0.76862700 0.78822500 0.78923800 0.78642600
0.77254900 0.79186400 0.79284400 0.79001300
0.77647100 0.79546600 0.79640800 0.79355800
0.78039200 0.79902600 0.79993000 0.79705600
0.78431400 0.80257100 0.80344900 0.80050800
0.78823500 0.80615000 0.80700200 0.80396900
0.79215700 0.80976500 0.81058800 0.80746900
0.79607800 0.81341000 0.81419800 0.81100600
0.80000000 0.81707300 0.81782400 0.81457200
0.80392200 0.82074800 0.82146100 0.81815900
0.80784300 0.82441800 0.82509600 0.82176100
0.81176500 0.82808800 0.82873200 0.82536900
0.81568600 0.83176300 0.83237000 0.82899100
0.81960800 0.83544400 0.83601100 0.83262400
0.82352900 0.83911700 0.83965000 0.83626700
0.82745100 0.84277800 0.84328500 0.83991100
0.83137300 0.84643300 0.84691700 0.84355200
0.83529400 0.85007500 0.85053600 0.84718800
0.83921600 0.85369600 0.85413300 0.85081200
0.84313700 0.85728900 0.85770400 0.85441500
0.84705900 0.86088400 0.86128400 0.85799600
0.85098000 0.86450200 0.86488600 0.86159300
0.85490200 0.86813700 0.86850300 0.86521600
0.85882400 0.87178000 0.87212700 0.86885800
0.86274500 0.87543200 0.87576000 0.87250900
0.86666700 0.87908200 0.87938800 0.87617200
0.87058800 0.88271900 0.88300400 0.87983200
0.87451000 0.88633700 0.88660500 0.88348800
0.87843100 0.88992900 0.89018800 0.88713200
0.88235300 0.89353000 0.89378000 0.89076400
0.88627500 0.89714700 0.89738500 0.89441600
0.89019600 0.90077200 0.90099800 0.89808600
0.89411800 0.90439000 0.90460300 0.90176800
0.89803900 0.90798800 0.90819000 0.90544200
0.90196100 0.91157100 0.91176400 0.90910300
0.90588200 0.91515700 0.91534500 0.91276300
0.90980400 0.91874500 0.91892600 0.91643100
0.91372500 0.92232100 0.92249300 0.92009500
0.91764700 0.92588700 0.92604900 0.92374000
0.92156900 0.92945500 0.92960700 0.92737900
0.92549000 0.93301500 0.93315400 0.93101300
0.92941200 0.93656900 0.93669600 0.93463500
0.93333300 0.94012400 0.94023900 0.93826300
0.93725500 0.94367200 0.94377800 0.94189200
0.94117600 0.94722000 0.94731600 0.94552600
0.94509800 0.95076400 0.95085300 0.94916300
0.94902000 0.95430500 0.95438700 0.95280200
0.95294100 0.95784400 0.95791700 0.95644000
0.95686300 0.96138000 0.96144500 0.96007600
0.96078400 0.96491400 0.96497100 0.96371500
0.96470600 0.96844400 0.96849500 0.96735600
0.96862700 0.97197000 0.97201400 0.97099600
0.97254900 0.97549100 0.97552900 0.97463200
0.97647100 0.97900800 0.97903900 0.97826600
0.98039200 0.98251900 0.98254400 0.98189600
0.98431400 0.98602500 0.98604400 0.98552300
0.98823500 0.98952600 0.98954000 0.98914700
0.99215700 0.99302200 0.99303100 0.99276800
0.99607800 0.99651400 0.99651800 0.99638500
1.00000000 1.00000000 1.00000000 1.00000000
END_DATA
CAL    

DESCRIPTOR "Argyll Calibration options and model"
ORIGINATOR "Argyll dispcal"
CREATED "Fri Jul 24 16:20:07 202"

NUMBER_OF_FIELDS 3
BEGIN_DATA_FORMAT
R_P G_P B_P
END_DATA_FORMAT

NUMBER_OF_SETS 32
BEGIN_DATA
0.00000817588 0.00035832900 0.00025853700
0.99999200000 0.99964200000 0.99974100000
2.12998800000 2.13542400000 2.06012400000
0.36422900000 0.36959000000 0.38405200000
0.17809100000 0.18683500000 0.17556300000
0.13502400000 0.14582600000 0.14720200000
0.09022410000 0.09693710000 0.10214700000
0.07369240000 0.07282010000 0.07384580000
0.06049260000 0.05599100000 0.05488250000
0.04753220000 0.04352000000 0.04330370000
0.04116310000 0.03854240000 0.04033330000
0.03454400000 0.03365360000 0.03637820000
0.02899150000 0.02902190000 0.03266430000
0.02619430000 0.02636770000 0.03039020000
0.02264160000 0.02376830000 0.02672860000
0.01972340000 0.02159000000 0.02362170000
0.01881590000 0.02041310000 0.02226960000
0.01784620000 0.01906930000 0.02065920000
0.01703840000 0.01815800000 0.01984220000
0.01644920000 0.01778660000 0.01924380000
0.01528590000 0.01699180000 0.01762060000
0.01430010000 0.01618780000 0.01627170000
0.01333880000 0.01557660000 0.01500430000
0.01171890000 0.01501730000 0.01337240000
0.01045290000 0.01454910000 0.01250870000
0.00984240000 0.01405330000 0.01210180000
0.00921908000 0.01352200000 0.01138350000
0.00868367000 0.01314920000 0.01095030000
0.00825136000 0.01287310000 0.01047440000
0.00795435000 0.01252000000 0.01002090000
0.00792001000 0.01217740000 0.01006530000
0.00775006000 0.01196420000 0.00990055000
END_DATA
