displaycal/LG UltraFine/UltraFine #1 2026-07-24 17-22 2.2 F-S XYZLUT+MTX.cal
CAL    

DESCRIPTOR "Argyll Device Calibration Curves"
ORIGINATOR "Argyll dispcal"
CREATED "Fri Jul 24 17:29:21 2026"
DEVICE_CLASS "DISPLAY"
COLOR_REP "RGB"
VIDEO_LUT_CALIBRATION_POSSIBLE "YES"
TV_OUTPUT_ENCODING "NO"
DEVICE_TYPE "b"
NATIVE_TARGET_WHITE ""
TARGET_WHITE_XYZ "179.499360 185.200958 221.220589"
TARGET_GAMMA "2.2"
DEGREE_OF_BLACK_OUTPUT_OFFSET "1.0"
BLACK_POINT_CORRECTION "0.0"
BLACK_NEUTRAL_BLEND_RATE "4.0"
BLACK_POINT_HACK "YES"
QUALITY "low"

BEGIN_ARGYLL_DISPCAL_ARGS
-v2 -d1 -c1 -yb -P0.506756756757,0.544817927171,1.0 -F -N -ql -m -t -g2.2 -f1.0 -k0 -A4.0 -b
END_ARGYLL_DISPCAL_ARGS


NUMBER_OF_FIELDS 4
BEGIN_DATA_FORMAT
RGB_I RGB_R RGB_G RGB_B
END_DATA_FORMAT

NUMBER_OF_SETS 256
BEGIN_DATA
0.00000000 0.00000000 0.00000000 0.00000000
0.00392157 0.00268743 0.00286907 0.00293749
0.00784314 0.00547787 0.00581838 0.00595161
0.01176470 0.00837735 0.00885135 0.00904539
0.01568630 0.01139240 0.01197160 0.01222200
0.01960780 0.01453000 0.01518290 0.01548490
0.02352940 0.01779790 0.01848940 0.01883760
0.02745100 0.02120440 0.02189530 0.02228390
0.03137250 0.02475830 0.02540510 0.02582770
0.03529410 0.02846960 0.02902380 0.02947320
0.03921570 0.03234880 0.03275650 0.03322490
0.04313730 0.03640370 0.03660150 0.03708380
0.04705880 0.04061680 0.04054500 0.04103400
0.05098040 0.04496340 0.04457900 0.04506300
0.05490200 0.04941840 0.04869190 0.04916640
0.05882350 0.05395420 0.05287000 0.05333580
0.06274510 0.05854740 0.05710680 0.05756170
0.06666670 0.06316970 0.06138680 0.06183250
0.07058820 0.06779930 0.06570320 0.06614190
0.07450980 0.07241820 0.07005420 0.07048060
0.07843140 0.07702790 0.07444610 0.07484710
0.08235290 0.08164160 0.07888010 0.07925190
0.08627450 0.08627070 0.08336240 0.08371170
0.09019610 0.09090300 0.08788590 0.08821480
0.09411760 0.09554610 0.09244150 0.09274570
0.09803920 0.10020500 0.09703150 0.09730510
0.10196100 0.10488100 0.10165600 0.10189700
0.10588200 0.10953600 0.10628400 0.10650100
0.10980400 0.11417000 0.11090300 0.11109300
0.11372500 0.11876600 0.11551700 0.11567000
0.11764700 0.12331100 0.12009800 0.12021000
0.12156900 0.12780500 0.12464000 0.12471000
0.12549000 0.13223500 0.12914300 0.12916800
0.12941200 0.13658900 0.13359400 0.13356000
0.13333300 0.14089000 0.13800500 0.13789300
0.13725500 0.14515200 0.14238700 0.14218200
0.14117600 0.14937400 0.14674200 0.14643900
0.14509800 0.15355600 0.15105200 0.15066100
0.14902000 0.15770300 0.15531000 0.15485000
0.15294100 0.16182300 0.15952700 0.15901000
0.15686300 0.16591600 0.16370000 0.16314000
0.16078400 0.16999700 0.16782900 0.16724200
0.16470600 0.17406100 0.17191600 0.17133000
0.16862700 0.17809600 0.17595100 0.17539500
0.17254900 0.18209400 0.17993700 0.17942300
0.17647100 0.18607000 0.18387800 0.18341400
0.18039200 0.19002200 0.18779600 0.18737400
0.18431400 0.19394100 0.19168700 0.19129400
0.18823500 0.19782500 0.19555100 0.19517300
0.19215700 0.20167800 0.19938500 0.19900700
0.19607800 0.20550600 0.20319900 0.20280600
0.20000000 0.20929900 0.20699000 0.20657100
0.20392200 0.21306700 0.21075400 0.21030600
0.20784300 0.21681700 0.21449800 0.21401800
0.21176500 0.22053700 0.21822300 0.21771100
0.21568600 0.22423500 0.22192100 0.22137900
0.21960800 0.22794100 0.22561700 0.22503800
0.22352900 0.23165200 0.22932200 0.22870300
0.22745100 0.23536800 0.23303100 0.23237200
0.23137300 0.23909100 0.23673800 0.23605300
0.23529400 0.24281700 0.24043600 0.23974800
0.23921600 0.24653500 0.24411900 0.24345300
0.24313700 0.25024700 0.24778500 0.24715800
0.24705900 0.25396200 0.25143600 0.25086900
0.25098000 0.25767000 0.25507000 0.25458400
0.25490200 0.26136900 0.25868500 0.25829400
0.25882400 0.26505700 0.26228100 0.26199700
0.26274500 0.26873800 0.26585900 0.26568500
0.26666700 0.27242700 0.26942400 0.26936200
0.27058800 0.27612200 0.27299000 0.27303400
0.27451000 0.27982400 0.27655400 0.27669800
0.27843100 0.28352400 0.28011700 0.28035800
0.28235300 0.28722500 0.28366900 0.28401200
0.28627500 0.29095000 0.28722100 0.28766600
0.29019600 0.29470200 0.29079200 0.29133100
0.29411800 0.29847100 0.29438400 0.29500800
0.29803900 0.30226000 0.29799300 0.29869700
0.30196100 0.30605100 0.30162000 0.30240000
0.30588200 0.30983600 0.30524600 0.30610500
0.30980400 0.31361800 0.30885900 0.30980500
0.31372500 0.31738100 0.31246300 0.31350200
0.31764700 0.32112500 0.31605200 0.31718500
0.32156900 0.32484900 0.31962700 0.32085500
0.32549000 0.32855100 0.32318600 0.32451100
0.32941200 0.33223100 0.32672800 0.32815200
0.33333300 0.33589900 0.33025400 0.33177700
0.33725500 0.33955900 0.33376400 0.33539200
0.34117600 0.34320500 0.33727600 0.33900700
0.34509800 0.34684100 0.34078800 0.34262100
0.34902000 0.35047400 0.34429900 0.34623500
0.35294100 0.35410600 0.34781200 0.34985400
0.35686300 0.35773900 0.35133000 0.35347600
0.36078400 0.36137300 0.35485600 0.35710000
0.36470600 0.36500200 0.35839100 0.36072700
0.36862700 0.36864000 0.36193200 0.36435400
0.37254900 0.37228400 0.36548100 0.36798700
0.37647100 0.37593700 0.36905100 0.37162800
0.38039200 0.37959200 0.37263100 0.37528000
0.38431400 0.38323300 0.37621800 0.37893800
0.38823500 0.38686200 0.37980900 0.38258300
0.39215700 0.39048400 0.38339600 0.38621100
0.39607800 0.39408300 0.38698000 0.38983000
0.40000000 0.39764400 0.39056300 0.39343500
0.40392200 0.40117600 0.39413300 0.39701900
0.40784300 0.40473300 0.39768500 0.40058600
0.41176500 0.40832600 0.40122500 0.40417200
0.41568600 0.41194800 0.40479200 0.40779200
0.41960800 0.41558600 0.40839500 0.41144100
0.42352900 0.41924100 0.41202900 0.41511100
0.42745100 0.42290400 0.41568600 0.41880500
0.43137300 0.42657600 0.41936500 0.42250900
0.43529400 0.43025200 0.42305500 0.42622100
0.43921600 0.43392900 0.42675800 0.42993900
0.44313700 0.43760300 0.43047100 0.43366000
0.44705900 0.44127400 0.43417600 0.43738100
0.45098000 0.44493300 0.43786000 0.44110200
0.45490200 0.44861000 0.44152200 0.44482000
0.45882400 0.45230700 0.44515800 0.44855700
0.46274500 0.45601200 0.44879800 0.45231200
0.46666700 0.45972200 0.45244700 0.45607800
0.47058800 0.46343200 0.45610400 0.45985100
0.47451000 0.46715200 0.45976600 0.46363100
0.47843100 0.47086900 0.46343000 0.46742200
0.48235300 0.47458100 0.46710300 0.47121200
0.48627500 0.47828800 0.47078700 0.47499800
0.49019600 0.48199200 0.47448400 0.47877800
0.49411800 0.48569300 0.47819100 0.48255400
0.49803900 0.48939700 0.48190400 0.48632500
0.50196100 0.49310600 0.48562200 0.49009600
0.50588200 0.49682000 0.48934800 0.49386700
0.50980400 0.50054300 0.49308200 0.49764000
0.51372500 0.50428200 0.49682500 0.50141800
0.51764700 0.50802700 0.50058200 0.50520600
0.52156900 0.51177600 0.50434300 0.50900000
0.52549000 0.51553100 0.50809000 0.51279900
0.52941200 0.51928900 0.51182400 0.51660600
0.53333300 0.52304300 0.51554400 0.52041400
0.53725500 0.52679500 0.51925100 0.52422300
0.54117600 0.53054400 0.52294000 0.52803300
0.54509800 0.53428700 0.52661600 0.53184400
0.54902000 0.53804200 0.53028200 0.53565900
0.55294100 0.54181700 0.53393900 0.53948900
0.55686300 0.54561100 0.53760600 0.54334300
0.56078400 0.54943700 0.54129400 0.54722500
0.56470600 0.55330300 0.54500500 0.55114300
0.56862700 0.55721500 0.54874900 0.55510000
0.57254900 0.56116600 0.55254100 0.55909900
0.57647100 0.56515700 0.55638600 0.56313100
0.58039200 0.56917100 0.56027200 0.56719400
0.58431400 0.57320400 0.56419700 0.57128400
0.58823500 0.57728800 0.56815600 0.57541500
0.59215700 0.58141700 0.57212900 0.57959700
0.59607800 0.58557300 0.57614300 0.58381700
0.60000000 0.58973200 0.58020400 0.58805100
0.60392200 0.59388600 0.58429900 0.59227800
0.60784300 0.59803700 0.58840800 0.59650000
0.61176500 0.60218900 0.59251900 0.60072000
0.61568600 0.60633900 0.59662500 0.60494600
0.61960800 0.61048700 0.60072600 0.60917900
0.62352900 0.61463300 0.60482200 0.61341700
0.62745100 0.61877100 0.60891300 0.61765300
0.63137300 0.62291200 0.61300300 0.62189300
0.63529400 0.62706200 0.61708700 0.62614500
0.63921600 0.63120500 0.62117200 0.63039500
0.64313700 0.63533100 0.62525800 0.63462600
0.64705900 0.63943900 0.62934800 0.63883700
0.65098000 0.64352900 0.63343100 0.64302800
0.65490200 0.64759900 0.63750100 0.64719600
0.65882400 0.65163800 0.64155100 0.65133800
0.66274500 0.65562700 0.64557700 0.65544400
0.66666700 0.65953700 0.64957400 0.65949500
0.67058800 0.66336000 0.65353900 0.66348200
0.67451000 0.66710200 0.65746200 0.66741000
0.67843100 0.67084700 0.66133200 0.67134200
0.68235300 0.67464700 0.66514800 0.67530800
0.68627500 0.67850300 0.66893600 0.67930800
0.69019600 0.68241300 0.67277500 0.68334100
0.69411800 0.68636000 0.67667300 0.68739800
0.69803900 0.69032900 0.68063200 0.69147400
0.70196100 0.69432000 0.68464800 0.69558200
0.70588200 0.69834800 0.68870800 0.69973600
0.70980400 0.70241600 0.69280500 0.70391900
0.71372500 0.70650700 0.69694800 0.70811800
0.71764700 0.71061700 0.70114600 0.71233000
0.72156900 0.71474300 0.70537300 0.71655600
0.72549000 0.71888100 0.70961800 0.72079000
0.72941200 0.72302800 0.71388000 0.72503100
0.73333300 0.72717200 0.71813900 0.72926000
0.73725500 0.73130700 0.72238200 0.73348000
0.74117600 0.73543600 0.72660400 0.73767400
0.74509800 0.73953600 0.73080100 0.74183600
0.74902000 0.74360800 0.73499000 0.74597300
0.75294100 0.74765500 0.73916800 0.75008900
0.75686300 0.75167800 0.74334100 0.75417800
0.76078400 0.75568000 0.74750600 0.75824000
0.76470600 0.75966100 0.75166600 0.76228300
0.76862700 0.76363300 0.75581900 0.76631500
0.77254900 0.76760400 0.75996400 0.77033900
0.77647100 0.77156600 0.76410800 0.77435600
0.78039200 0.77553100 0.76825400 0.77836600
0.78431400 0.77949100 0.77239000 0.78236200
0.78823500 0.78343900 0.77651600 0.78633700
0.79215700 0.78737700 0.78062300 0.79028700
0.79607800 0.79130200 0.78469600 0.79420900
0.80000000 0.79519800 0.78873900 0.79808800
0.80392200 0.79904700 0.79274600 0.80192900
0.80784300 0.80287200 0.79670400 0.80577800
0.81176500 0.80673200 0.80061000 0.80964400
0.81568600 0.81062700 0.80449800 0.81351800
0.81960800 0.81453600 0.80839800 0.81739500
0.82352900 0.81844900 0.81230600 0.82128000
0.82745100 0.82236900 0.81621200 0.82517200
0.83137300 0.82629400 0.82011600 0.82907100
0.83529400 0.83022500 0.82401600 0.83298800
0.83921600 0.83417100 0.82791000 0.83692400
0.84313700 0.83813500 0.83179800 0.84088700
0.84705900 0.84211700 0.83568200 0.84487800
0.85098000 0.84611700 0.83955600 0.84890300
0.85490200 0.85014100 0.84341700 0.85296900
0.85882400 0.85418700 0.84727100 0.85706600
0.86274500 0.85824300 0.85112300 0.86120600
0.86666700 0.86234000 0.85497100 0.86539300
0.87058800 0.86647500 0.85881700 0.86960800
0.87451000 0.87062000 0.86268900 0.87383700
0.87843100 0.87477300 0.86658500 0.87806700
0.88235300 0.87892200 0.87049700 0.88228200
0.88627500 0.88306100 0.87443200 0.88648300
0.89019600 0.88718600 0.87838800 0.89066300
0.89411800 0.89129500 0.88235900 0.89485200
0.89803900 0.89542800 0.88634400 0.89905100
0.90196100 0.89958400 0.89034100 0.90326000
0.90588200 0.90375900 0.89438600 0.90746400
0.90980400 0.90793600 0.89848500 0.91166100
0.91372500 0.91211300 0.90263200 0.91585900
0.91764700 0.91630400 0.90680100 0.92004800
0.92156900 0.92049000 0.91098900 0.92420600
0.92549000 0.92465300 0.91521700 0.92833700
0.92941200 0.92880200 0.91947800 0.93243100
0.93333300 0.93292600 0.92374900 0.93648000
0.93725500 0.93702100 0.92803600 0.94049400
0.94117600 0.94110100 0.93233500 0.94447100
0.94509800 0.94516200 0.93664800 0.94841000
0.94902000 0.94919700 0.94099500 0.95230800
0.95294100 0.95320500 0.94537500 0.95616500
0.95686300 0.95718800 0.94978000 0.95998200
0.96078400 0.96114900 0.95421500 0.96375800
0.96470600 0.96508800 0.95868200 0.96749700
0.96862700 0.96901100 0.96318100 0.97120800
0.97254900 0.97292300 0.96771100 0.97489400
0.97647100 0.97682400 0.97226500 0.97855400
0.98039200 0.98071400 0.97683800 0.98219000
0.98431400 0.98459300 0.98143100 0.98580000
0.98823500 0.98846100 0.98604400 0.98938600
0.99215700 0.99231800 0.99067600 0.99294800
0.99607800 0.99616500 0.99532800 0.99648600
1.00000000 1.00000000 1.00000000 1.00000000
END_DATA
CAL    

DESCRIPTOR "Argyll Calibration options and model"
ORIGINATOR "Argyll dispcal"
CREATED "Fri Jul 24 17:29:21 202"

NUMBER_OF_FIELDS 3
BEGIN_DATA_FORMAT
R_P G_P B_P
END_DATA_FORMAT

NUMBER_OF_SETS 32
BEGIN_DATA
-0.000217196 0.000296251 0.000655570
1.000217000 0.999704000 0.999344000
1.726013000 1.597408000 1.764089000
0.341220000 0.371047000 0.290058000
0.213605000 0.215651000 0.223551000
0.210803000 0.210272000 0.211631000
0.162590000 0.161954000 0.161797000
0.097167600 0.095737100 0.100321000
0.069466400 0.071590700 0.073406200
0.062133000 0.065929300 0.065170900
0.059402700 0.061488400 0.062096500
0.052057500 0.052927600 0.054859000
0.045051100 0.046808100 0.047856600
0.039986300 0.042528900 0.042653200
0.035998200 0.039549200 0.038675900
0.033122900 0.037669300 0.035834600
0.031453600 0.036672400 0.034074500
0.029849600 0.035077900 0.032247200
0.027447700 0.032333900 0.029876300
0.024145000 0.029280800 0.026807200
0.021549800 0.027290900 0.024374300
0.020109100 0.026562600 0.022942100
0.019511800 0.025990100 0.022325700
0.018733300 0.025182300 0.021548300
0.017626500 0.024410800 0.020565200
0.016853900 0.023969200 0.019648500
0.016305600 0.023549700 0.019098200
0.015859200 0.023221000 0.018705400
0.015653000 0.022782400 0.018578300
0.015207300 0.021858200 0.018182300
0.014371400 0.020691600 0.017360300
0.013281600 0.019730200 0.016380400
END_DATA
