displaycal/LG UltraFine/UltraFine #1 2026-07-24 17-22 2.2 F-S XYZLUT+MTX.ti3
CTI3   

DESCRIPTOR "Argyll Calibration Target chart information 3"
ORIGINATOR "Argyll dispread"
CREATED "Fri Jul 24 17:29:22 2026"
DEVICE_CLASS "DISPLAY"
SINGLE_DIM_STEPS "5"
COMP_GREY_STEPS "52"
MULTI_DIM_STEPS "5"
COLOR_REP "RGB_XYZ"
TARGET_INSTRUMENT "Datacolor SpyderX"
INSTRUMENT_TYPE_SPECTRAL "NO"
LUMINANCE_XYZ_CDM2 "179.166676 184.812690 220.704571"
NORMALIZED_TO_Y_100 "YES"
VIDEO_LUT_CALIBRATION_POSSIBLE "YES"

BEGIN_ARGYLL_COLPROF_ARGS
-v -qh -aX -bn -C "No copyright. Created with DisplayCAL 3.8.9.3 and ArgyllCMS 3.5.0" -M "LG UltraFine" -A "LG Electronics"
END_ARGYLL_COLPROF_ARGS

OBSERVER "1931_2"
USE_BLACK_POINT_COMPENSATION "NO"
BLACK_POINT_CORRECTION "0.0"
HIRES_B2A "YES"
HIRES_B2A_SIZE "-1"
SMOOTH_B2A "YES"
PATCH_SEQUENCE "OPTIMIZE_DISPLAY_RESPONSE_DELAY"

NUMBER_OF_FIELDS 7
BEGIN_DATA_FORMAT
SAMPLE_ID RGB_R RGB_G RGB_B XYZ_X XYZ_Y XYZ_Z
END_DATA_FORMAT

NUMBER_OF_SETS 175
BEGIN_DATA
1 100.00000 100.00000 100.00000 96.945010 100.00000 119.42070
2 100.00000 100.00000 75.000000 86.975530 96.899340 65.939240
3 100.00000 100.00000 100.00000 96.929610 99.985600 119.38330
4 100.00000 100.00000 100.00000 96.922670 99.993610 119.40240
5 0.0000000 0.0000000 0.0000000 0.0681456 0.0797951 0.1306030
6 25.000000 0.0000000 0.0000000 2.3535020 1.1164470 0.1525800
7 50.000000 0.0000000 0.0000000 10.540540 4.8550360 0.2064010
8 75.000000 0.0000000 0.0000000 25.699790 11.772650 0.3235350
9 100.00000 0.0000000 0.0000000 49.315540 22.557480 0.5070760
10 100.00000 0.0000000 25.000000 50.331200 22.893990 6.1168140
11 100.00000 25.000000 25.000000 51.625460 26.408830 6.4055040
12 100.00000 50.000000 25.000000 56.122740 38.526750 7.1895520
13 100.00000 75.000000 25.000000 64.287560 60.407680 8.6145040
14 0.0000000 0.0000000 25.000000 1.0855190 0.4077470 5.5141240
15 25.000000 0.0000000 25.000000 3.4086080 1.4651900 5.5917710
16 75.000000 0.0000000 100.00000 47.567520 18.865480 115.13690
17 100.00000 0.0000000 100.00000 70.765250 29.476590 115.19840
18 1.9608000 1.9608000 1.9608000 0.1057840 0.1081370 0.1863220
19 3.9216000 3.9216000 3.9216000 0.1576780 0.1658830 0.2418430
20 5.8824000 5.8824000 5.8824000 0.2471140 0.2595240 0.3531310
21 7.8431000 7.8431000 7.8431000 0.3957630 0.4105070 0.5197470
22 9.8039000 9.8039000 9.8039000 0.5742570 0.5901870 0.7234430
23 11.765000 11.765000 11.765000 0.8497890 0.8782580 1.0571590
24 13.726000 13.726000 13.726000 1.2226480 1.2520640 1.5207540
25 15.686000 15.686000 15.686000 1.6246850 1.6696210 2.0026920
26 17.647000 17.647000 17.647000 2.1296510 2.2328310 2.5770320
27 19.608000 19.608000 19.608000 2.7035290 2.8154150 3.2815950
28 21.569000 21.569000 21.569000 3.3384260 3.4252810 4.0977920
29 23.529000 23.529000 23.529000 4.1280530 4.2460970 5.0619600
30 27.451000 27.451000 27.451000 5.6707130 5.8519340 6.9721920
31 29.412000 29.412000 29.412000 6.6321790 6.8377770 8.1589850
32 31.373000 31.373000 31.373000 7.7053240 7.9312060 9.4754130
33 33.333000 33.333000 33.333000 8.7567020 9.0107400 10.792320
34 35.294000 35.294000 35.294000 9.9249820 10.250170 12.182520
35 37.255000 37.255000 37.255000 11.217590 11.476350 13.852040
36 39.216000 39.216000 39.216000 12.523590 12.851670 15.258290
37 41.176000 41.176000 41.176000 13.862480 14.226920 17.097090
38 43.137000 43.137000 43.137000 15.442590 15.838390 19.044070
39 45.098000 45.098000 45.098000 16.920990 17.522480 20.768010
40 47.059000 47.059000 47.059000 18.472970 19.044940 22.715190
41 49.020000 49.020000 49.020000 20.186800 20.830860 24.829310
42 50.980000 50.980000 50.980000 22.009270 22.739170 26.960170
43 52.941000 52.941000 52.941000 23.924700 24.674590 29.597540
44 54.902000 54.902000 54.902000 25.993620 26.692280 32.269100
45 56.863000 56.863000 56.863000 28.236090 29.017690 35.013330
46 58.824000 58.824000 58.824000 30.527700 31.468620 37.738190
47 60.784000 60.784000 60.784000 32.981650 33.918380 40.515330
48 62.745000 62.745000 62.745000 35.419340 36.445570 43.557180
49 64.706000 64.706000 64.706000 37.921170 39.218510 46.655340
50 66.667000 66.667000 66.667000 40.294990 41.755930 49.491630
51 68.627000 68.627000 68.627000 42.678510 44.217570 52.383750
52 70.588000 70.588000 70.588000 45.265700 46.851620 55.893420
53 72.549000 72.549000 72.549000 48.023410 49.633110 58.984960
54 76.471000 76.471000 76.471000 53.757130 55.656220 66.220340
55 78.431000 78.431000 78.431000 56.657600 58.575280 69.817760
56 80.392000 80.392000 80.392000 59.778940 61.792440 73.618480
57 82.353000 82.353000 82.353000 63.006270 65.064820 77.586350
58 84.314000 84.314000 84.314000 66.394970 68.562800 81.683260
59 86.275000 86.275000 86.275000 69.876530 72.109410 86.004170
60 88.235000 88.235000 88.235000 73.623460 75.958150 90.263430
61 90.196000 90.196000 90.196000 77.373240 79.741460 95.181740
62 92.157000 92.157000 92.157000 81.042490 83.949200 99.445160
63 94.118000 94.118000 94.118000 84.317890 87.430180 103.39420
64 96.078000 96.078000 96.078000 88.198150 91.610970 107.59540
65 98.039000 98.039000 98.039000 92.125400 95.302770 112.82890
66 25.000000 25.000000 0.0000000 3.6545180 4.5249500 0.3650860
67 50.000000 25.000000 0.0000000 11.914650 8.3048700 0.4360920
68 75.000000 25.000000 0.0000000 27.073230 15.237540 0.5344890
69 100.00000 25.000000 0.0000000 50.579200 26.028420 0.7209280
70 100.00000 50.000000 0.0000000 55.040170 38.050080 1.4676610
71 50.000000 50.000000 0.0000000 16.384280 20.182570 1.1628990
72 75.000000 50.000000 0.0000000 31.549990 27.167760 1.2802670
73 25.000000 50.000000 0.0000000 8.0740610 16.352660 1.1117450
74 25.000000 75.000000 0.0000000 16.273570 38.307000 2.4985420
75 50.000000 75.000000 0.0000000 24.605650 42.143260 2.5491650
76 75.000000 75.000000 0.0000000 39.764230 49.113740 2.6666310
77 100.00000 75.000000 0.0000000 63.203560 59.968670 2.8551880
78 25.000000 100.00000 0.0000000 28.870950 72.029790 4.6133670
79 50.000000 100.00000 0.0000000 37.247800 75.833470 4.6814720
80 75.000000 100.00000 0.0000000 52.355920 82.708540 4.7808420
81 100.00000 100.00000 0.0000000 75.586250 93.280570 4.9543180
82 100.00000 100.00000 25.000000 76.622830 93.571550 10.789360
83 50.000000 0.0000000 25.000000 11.676530 5.2447560 5.6814150
84 50.000000 25.000000 50.000000 16.743750 9.9579730 25.268870
85 0.0000000 25.000000 0.0000000 1.3260130 3.4302980 0.3438890
86 0.0000000 25.000000 25.000000 2.3666700 3.8025540 5.8024410
87 25.490000 25.490000 25.490000 4.8750940 5.0770340 6.0838280
88 50.000000 25.000000 25.000000 13.058910 8.7320990 5.9676450
89 75.000000 25.000000 25.000000 28.218920 15.664920 6.1225360
90 0.0000000 50.000000 0.0000000 5.7028850 15.162240 1.0910900
91 0.0000000 50.000000 25.000000 6.7864970 15.645420 6.5680260
92 25.000000 50.000000 25.000000 9.2032020 16.856270 6.6629900
93 50.000000 50.000000 25.000000 17.572540 20.713270 6.7504520
94 75.000000 50.000000 25.000000 32.746520 27.698150 6.9052890
95 0.0000000 75.000000 0.0000000 13.887180 37.124890 2.4594900
96 0.0000000 75.000000 25.000000 14.979160 37.600210 7.9738480
97 25.000000 75.000000 25.000000 17.403190 38.810660 8.0686190
98 50.000000 75.000000 25.000000 25.794290 42.681550 8.1555960
99 75.000000 75.000000 25.000000 40.961240 49.644180 8.3104840
100 0.0000000 100.00000 0.0000000 26.505470 70.967360 4.5933260
101 0.0000000 100.00000 25.000000 27.535770 71.265250 10.183610
102 25.000000 100.00000 25.000000 29.946780 72.348110 10.277960
103 50.000000 100.00000 25.000000 38.389690 76.170860 10.363300
104 75.000000 100.00000 25.000000 53.498570 83.061140 10.500430
105 0.0000000 0.0000000 50.000000 4.6601050 1.5779560 24.478700
106 25.000000 0.0000000 50.000000 7.0156050 2.6492370 24.687490
107 50.000000 0.0000000 50.000000 15.314130 6.4348910 24.832910
108 75.000000 0.0000000 50.000000 30.490400 13.351950 25.043810
109 100.00000 0.0000000 50.000000 53.983350 24.076910 25.550540
110 100.00000 0.0000000 75.000000 60.623550 26.231220 60.910290
111 100.00000 25.000000 75.000000 61.964760 29.804450 61.348860
112 75.000000 0.0000000 25.000000 26.844150 12.154520 5.8359710
113 75.000000 25.000000 50.000000 31.913070 16.883040 25.498840
114 100.00000 25.000000 50.000000 55.317620 27.620340 25.989100
115 25.000000 25.000000 50.000000 8.3804910 6.1231310 25.143690
116 25.000000 50.000000 50.000000 12.873590 18.105660 25.983570
117 75.000000 50.000000 50.000000 36.463480 28.960520 26.337790
118 100.00000 50.000000 50.000000 59.866790 39.796010 26.828670
119 100.00000 50.000000 75.000000 66.513350 42.025440 62.188710
120 25.000000 75.000000 50.000000 21.090110 40.059440 27.464140
121 50.000000 75.000000 50.000000 29.518670 43.935970 27.587860
122 75.000000 75.000000 50.000000 44.679720 50.899150 27.799440
123 100.00000 75.000000 50.000000 68.011080 61.678300 28.310700
124 100.00000 75.000000 75.000000 74.679220 63.898910 63.651280
125 25.000000 100.00000 50.000000 33.631150 73.522160 29.823850
126 50.000000 100.00000 50.000000 42.103810 77.381170 29.946320
127 75.000000 100.00000 50.000000 57.222090 84.256140 30.158480
128 100.00000 100.00000 50.000000 80.337130 94.752790 30.654850
129 25.000000 0.0000000 75.000000 13.716260 4.8383270 60.140100
130 50.000000 0.0000000 75.000000 22.043490 8.6298720 60.265960
131 75.000000 0.0000000 75.000000 37.212440 15.547330 60.477050
132 75.000000 25.000000 75.000000 38.648890 19.107780 60.913060
133 75.000000 50.000000 100.00000 53.599520 34.771030 116.01650
134 25.000000 25.000000 75.000000 15.087700 8.3344260 60.577410
135 25.000000 50.000000 100.00000 29.988710 23.895970 115.98310
136 0.0000000 25.000000 50.000000 5.9744260 5.0018050 24.935920
137 0.0000000 25.000000 75.000000 12.667090 7.2063540 60.369980
138 0.0000000 50.000000 75.000000 17.131210 19.130030 61.191430
139 25.000000 50.000000 75.000000 19.594770 20.369010 61.417240
140 50.000000 50.000000 75.000000 28.023230 24.253100 61.541010
141 75.000000 50.000000 75.000000 43.206050 31.230170 61.752100
142 74.510000 74.510000 74.510000 50.810300 52.482200 62.396490
143 0.0000000 75.000000 75.000000 25.318070 41.077820 62.653890
144 25.000000 75.000000 75.000000 27.796370 42.308450 62.879270
145 50.000000 75.000000 75.000000 36.254580 46.190960 63.021100
146 0.0000000 75.000000 50.000000 18.618950 38.843510 27.238660
147 0.0000000 100.00000 50.000000 31.180220 72.440970 29.598650
148 0.0000000 100.00000 75.000000 37.836770 74.571960 65.014370
149 25.000000 100.00000 75.000000 40.286650 75.660610 65.201960
150 50.000000 100.00000 75.000000 48.796190 79.532750 65.342390
151 75.000000 100.00000 75.000000 63.906780 86.400520 65.535860
152 75.000000 100.00000 100.00000 74.095630 89.603660 119.35140
153 25.000000 0.0000000 100.00000 24.100800 8.1636110 115.10070
154 50.000000 0.0000000 100.00000 32.475560 11.982200 115.09360
155 0.0000000 0.0000000 75.000000 11.346690 3.7603500 59.950480
156 0.0000000 0.0000000 100.00000 21.737980 7.0787750 115.17470
157 0.0000000 25.000000 100.00000 23.036430 10.577760 115.33130
158 25.000000 25.000000 100.00000 25.435170 11.713450 115.25660
159 50.000000 25.000000 100.00000 33.889770 15.580460 115.24770
160 75.000000 25.000000 100.00000 49.010530 22.499900 115.29050
161 100.00000 25.000000 100.00000 72.098280 33.094350 115.33590
162 100.00000 50.000000 100.00000 76.685460 45.471160 116.04380
163 50.000000 25.000000 75.000000 23.488400 12.174900 60.739330
164 50.000000 50.000000 100.00000 38.472010 27.806680 115.97370
165 0.0000000 50.000000 50.000000 10.432650 16.888220 25.794980
166 0.0000000 50.000000 100.00000 27.524960 22.658120 116.03990
167 0.0000000 75.000000 100.00000 35.672100 44.554670 117.35240
168 25.000000 75.000000 100.00000 38.143170 45.792110 117.29530
169 50.000000 75.000000 100.00000 46.655560 49.716310 117.28520
170 75.000000 75.000000 100.00000 61.776030 56.658410 117.32820
171 100.00000 75.000000 100.00000 84.804560 67.308950 117.37550
172 0.0000000 100.00000 100.00000 48.039970 77.769040 119.39480
173 25.000000 100.00000 100.00000 50.482920 78.879650 119.31890
174 50.000000 100.00000 100.00000 59.032470 82.756530 119.30750
175 100.00000 100.00000 100.00000 96.914780 99.963700 119.36470
END_DATA
CAL    

DESCRIPTOR "Argyll Device Calibration State"
ORIGINATOR "Argyll dispread"
CREATED "Fri Jul 24 17:29:22 2026"
DEVICE_CLASS "DISPLAY"
COLOR_REP "RGB"

BEGIN_ARGYLL_DISPCAL_ARGS
-v2 -ql -m -t -g2.2 -f1.0 -k0 -A4.0 -d1 -c1 -yb -P0.506756756757,0.544817927171,1.0 -F -N
END_ARGYLL_DISPCAL_ARGS


NUMBER_OF_FIELDS 4
BEGIN_DATA_FORMAT
RGB_I RGB_R RGB_G RGB_B
END_DATA_FORMAT

NUMBER_OF_SETS 256
BEGIN_DATA
0.00000000 0.00000000 0.00000000 0.00000000
0.00392157 0.00268743 0.00286907 0.00293749
0.00784314 0.00547787 0.00581838 0.00595161
0.01176470 0.00837735 0.00885135 0.00904539
0.01568630 0.01139240 0.01197160 0.01222200
0.01960780 0.01453000 0.01518290 0.01548490
0.02352940 0.01779790 0.01848940 0.01883760
0.02745100 0.02120440 0.02189530 0.02228390
0.03137250 0.02475830 0.02540510 0.02582770
0.03529410 0.02846960 0.02902380 0.02947320
0.03921570 0.03234880 0.03275650 0.03322490
0.04313730 0.03640370 0.03660150 0.03708380
0.04705880 0.04061680 0.04054500 0.04103400
0.05098040 0.04496340 0.04457900 0.04506300
0.05490200 0.04941840 0.04869190 0.04916640
0.05882350 0.05395420 0.05287000 0.05333580
0.06274510 0.05854740 0.05710680 0.05756170
0.06666670 0.06316970 0.06138680 0.06183250
0.07058820 0.06779930 0.06570320 0.06614190
0.07450980 0.07241820 0.07005420 0.07048060
0.07843140 0.07702790 0.07444610 0.07484710
0.08235290 0.08164160 0.07888010 0.07925190
0.08627450 0.08627070 0.08336240 0.08371170
0.09019610 0.09090300 0.08788590 0.08821480
0.09411760 0.09554610 0.09244150 0.09274570
0.09803920 0.10020500 0.09703150 0.09730510
0.10196100 0.10488100 0.10165600 0.10189700
0.10588200 0.10953600 0.10628400 0.10650100
0.10980400 0.11417000 0.11090300 0.11109300
0.11372500 0.11876600 0.11551700 0.11567000
0.11764700 0.12331100 0.12009800 0.12021000
0.12156900 0.12780500 0.12464000 0.12471000
0.12549000 0.13223500 0.12914300 0.12916800
0.12941200 0.13658900 0.13359400 0.13356000
0.13333300 0.14089000 0.13800500 0.13789300
0.13725500 0.14515200 0.14238700 0.14218200
0.14117600 0.14937400 0.14674200 0.14643900
0.14509800 0.15355600 0.15105200 0.15066100
0.14902000 0.15770300 0.15531000 0.15485000
0.15294100 0.16182300 0.15952700 0.15901000
0.15686300 0.16591600 0.16370000 0.16314000
0.16078400 0.16999700 0.16782900 0.16724200
0.16470600 0.17406100 0.17191600 0.17133000
0.16862700 0.17809600 0.17595100 0.17539500
0.17254900 0.18209400 0.17993700 0.17942300
0.17647100 0.18607000 0.18387800 0.18341400
0.18039200 0.19002200 0.18779600 0.18737400
0.18431400 0.19394100 0.19168700 0.19129400
0.18823500 0.19782500 0.19555100 0.19517300
0.19215700 0.20167800 0.19938500 0.19900700
0.19607800 0.20550600 0.20319900 0.20280600
0.20000000 0.20929900 0.20699000 0.20657100
0.20392200 0.21306700 0.21075400 0.21030600
0.20784300 0.21681700 0.21449800 0.21401800
0.21176500 0.22053700 0.21822300 0.21771100
0.21568600 0.22423500 0.22192100 0.22137900
0.21960800 0.22794100 0.22561700 0.22503800
0.22352900 0.23165200 0.22932200 0.22870300
0.22745100 0.23536800 0.23303100 0.23237200
0.23137300 0.23909100 0.23673800 0.23605300
0.23529400 0.24281700 0.24043600 0.23974800
0.23921600 0.24653500 0.24411900 0.24345300
0.24313700 0.25024700 0.24778500 0.24715800
0.24705900 0.25396200 0.25143600 0.25086900
0.25098000 0.25767000 0.25507000 0.25458400
0.25490200 0.26136900 0.25868500 0.25829400
0.25882400 0.26505700 0.26228100 0.26199700
0.26274500 0.26873800 0.26585900 0.26568500
0.26666700 0.27242700 0.26942400 0.26936200
0.27058800 0.27612200 0.27299000 0.27303400
0.27451000 0.27982400 0.27655400 0.27669800
0.27843100 0.28352400 0.28011700 0.28035800
0.28235300 0.28722500 0.28366900 0.28401200
0.28627500 0.29095000 0.28722100 0.28766600
0.29019600 0.29470200 0.29079200 0.29133100
0.29411800 0.29847100 0.29438400 0.29500800
0.29803900 0.30226000 0.29799300 0.29869700
0.30196100 0.30605100 0.30162000 0.30240000
0.30588200 0.30983600 0.30524600 0.30610500
0.30980400 0.31361800 0.30885900 0.30980500
0.31372500 0.31738100 0.31246300 0.31350200
0.31764700 0.32112500 0.31605200 0.31718500
0.32156900 0.32484900 0.31962700 0.32085500
0.32549000 0.32855100 0.32318600 0.32451100
0.32941200 0.33223100 0.32672800 0.32815200
0.33333300 0.33589900 0.33025400 0.33177700
0.33725500 0.33955900 0.33376400 0.33539200
0.34117600 0.34320500 0.33727600 0.33900700
0.34509800 0.34684100 0.34078800 0.34262100
0.34902000 0.35047400 0.34429900 0.34623500
0.35294100 0.35410600 0.34781200 0.34985400
0.35686300 0.35773900 0.35133000 0.35347600
0.36078400 0.36137300 0.35485600 0.35710000
0.36470600 0.36500200 0.35839100 0.36072700
0.36862700 0.36864000 0.36193200 0.36435400
0.37254900 0.37228400 0.36548100 0.36798700
0.37647100 0.37593700 0.36905100 0.37162800
0.38039200 0.37959200 0.37263100 0.37528000
0.38431400 0.38323300 0.37621800 0.37893800
0.38823500 0.38686200 0.37980900 0.38258300
0.39215700 0.39048400 0.38339600 0.38621100
0.39607800 0.39408300 0.38698000 0.38983000
0.40000000 0.39764400 0.39056300 0.39343500
0.40392200 0.40117600 0.39413300 0.39701900
0.40784300 0.40473300 0.39768500 0.40058600
0.41176500 0.40832600 0.40122500 0.40417200
0.41568600 0.41194800 0.40479200 0.40779200
0.41960800 0.41558600 0.40839500 0.41144100
0.42352900 0.41924100 0.41202900 0.41511100
0.42745100 0.42290400 0.41568600 0.41880500
0.43137300 0.42657600 0.41936500 0.42250900
0.43529400 0.43025200 0.42305500 0.42622100
0.43921600 0.43392900 0.42675800 0.42993900
0.44313700 0.43760300 0.43047100 0.43366000
0.44705900 0.44127400 0.43417600 0.43738100
0.45098000 0.44493300 0.43786000 0.44110200
0.45490200 0.44861000 0.44152200 0.44482000
0.45882400 0.45230700 0.44515800 0.44855700
0.46274500 0.45601200 0.44879800 0.45231200
0.46666700 0.45972200 0.45244700 0.45607800
0.47058800 0.46343200 0.45610400 0.45985100
0.47451000 0.46715200 0.45976600 0.46363100
0.47843100 0.47086900 0.46343000 0.46742200
0.48235300 0.47458100 0.46710300 0.47121200
0.48627500 0.47828800 0.47078700 0.47499800
0.49019600 0.48199200 0.47448400 0.47877800
0.49411800 0.48569300 0.47819100 0.48255400
0.49803900 0.48939700 0.48190400 0.48632500
0.50196100 0.49310600 0.48562200 0.49009600
0.50588200 0.49682000 0.48934800 0.49386700
0.50980400 0.50054300 0.49308200 0.49764000
0.51372500 0.50428200 0.49682500 0.50141800
0.51764700 0.50802700 0.50058200 0.50520600
0.52156900 0.51177600 0.50434300 0.50900000
0.52549000 0.51553100 0.50809000 0.51279900
0.52941200 0.51928900 0.51182400 0.51660600
0.53333300 0.52304300 0.51554400 0.52041400
0.53725500 0.52679500 0.51925100 0.52422300
0.54117600 0.53054400 0.52294000 0.52803300
0.54509800 0.53428700 0.52661600 0.53184400
0.54902000 0.53804200 0.53028200 0.53565900
0.55294100 0.54181700 0.53393900 0.53948900
0.55686300 0.54561100 0.53760600 0.54334300
0.56078400 0.54943700 0.54129400 0.54722500
0.56470600 0.55330300 0.54500500 0.55114300
0.56862700 0.55721500 0.54874900 0.55510000
0.57254900 0.56116600 0.55254100 0.55909900
0.57647100 0.56515700 0.55638600 0.56313100
0.58039200 0.56917100 0.56027200 0.56719400
0.58431400 0.57320400 0.56419700 0.57128400
0.58823500 0.57728800 0.56815600 0.57541500
0.59215700 0.58141700 0.57212900 0.57959700
0.59607800 0.58557300 0.57614300 0.58381700
0.60000000 0.58973200 0.58020400 0.58805100
0.60392200 0.59388600 0.58429900 0.59227800
0.60784300 0.59803700 0.58840800 0.59650000
0.61176500 0.60218900 0.59251900 0.60072000
0.61568600 0.60633900 0.59662500 0.60494600
0.61960800 0.61048700 0.60072600 0.60917900
0.62352900 0.61463300 0.60482200 0.61341700
0.62745100 0.61877100 0.60891300 0.61765300
0.63137300 0.62291200 0.61300300 0.62189300
0.63529400 0.62706200 0.61708700 0.62614500
0.63921600 0.63120500 0.62117200 0.63039500
0.64313700 0.63533100 0.62525800 0.63462600
0.64705900 0.63943900 0.62934800 0.63883700
0.65098000 0.64352900 0.63343100 0.64302800
0.65490200 0.64759900 0.63750100 0.64719600
0.65882400 0.65163800 0.64155100 0.65133800
0.66274500 0.65562700 0.64557700 0.65544400
0.66666700 0.65953700 0.64957400 0.65949500
0.67058800 0.66336000 0.65353900 0.66348200
0.67451000 0.66710200 0.65746200 0.66741000
0.67843100 0.67084700 0.66133200 0.67134200
0.68235300 0.67464700 0.66514800 0.67530800
0.68627500 0.67850300 0.66893600 0.67930800
0.69019600 0.68241300 0.67277500 0.68334100
0.69411800 0.68636000 0.67667300 0.68739800
0.69803900 0.69032900 0.68063200 0.69147400
0.70196100 0.69432000 0.68464800 0.69558200
0.70588200 0.69834800 0.68870800 0.69973600
0.70980400 0.70241600 0.69280500 0.70391900
0.71372500 0.70650700 0.69694800 0.70811800
0.71764700 0.71061700 0.70114600 0.71233000
0.72156900 0.71474300 0.70537300 0.71655600
0.72549000 0.71888100 0.70961800 0.72079000
0.72941200 0.72302800 0.71388000 0.72503100
0.73333300 0.72717200 0.71813900 0.72926000
0.73725500 0.73130700 0.72238200 0.73348000
0.74117600 0.73543600 0.72660400 0.73767400
0.74509800 0.73953600 0.73080100 0.74183600
0.74902000 0.74360800 0.73499000 0.74597300
0.75294100 0.74765500 0.73916800 0.75008900
0.75686300 0.75167800 0.74334100 0.75417800
0.76078400 0.75568000 0.74750600 0.75824000
0.76470600 0.75966100 0.75166600 0.76228300
0.76862700 0.76363300 0.75581900 0.76631500
0.77254900 0.76760400 0.75996400 0.77033900
0.77647100 0.77156600 0.76410800 0.77435600
0.78039200 0.77553100 0.76825400 0.77836600
0.78431400 0.77949100 0.77239000 0.78236200
0.78823500 0.78343900 0.77651600 0.78633700
0.79215700 0.78737700 0.78062300 0.79028700
0.79607800 0.79130200 0.78469600 0.79420900
0.80000000 0.79519800 0.78873900 0.79808800
0.80392200 0.79904700 0.79274600 0.80192900
0.80784300 0.80287200 0.79670400 0.80577800
0.81176500 0.80673200 0.80061000 0.80964400
0.81568600 0.81062700 0.80449800 0.81351800
0.81960800 0.81453600 0.80839800 0.81739500
0.82352900 0.81844900 0.81230600 0.82128000
0.82745100 0.82236900 0.81621200 0.82517200
0.83137300 0.82629400 0.82011600 0.82907100
0.83529400 0.83022500 0.82401600 0.83298800
0.83921600 0.83417100 0.82791000 0.83692400
0.84313700 0.83813500 0.83179800 0.84088700
0.84705900 0.84211700 0.83568200 0.84487800
0.85098000 0.84611700 0.83955600 0.84890300
0.85490200 0.85014100 0.84341700 0.85296900
0.85882400 0.85418700 0.84727100 0.85706600
0.86274500 0.85824300 0.85112300 0.86120600
0.86666700 0.86234000 0.85497100 0.86539300
0.87058800 0.86647500 0.85881700 0.86960800
0.87451000 0.87062000 0.86268900 0.87383700
0.87843100 0.87477300 0.86658500 0.87806700
0.88235300 0.87892200 0.87049700 0.88228200
0.88627500 0.88306100 0.87443200 0.88648300
0.89019600 0.88718600 0.87838800 0.89066300
0.89411800 0.89129500 0.88235900 0.89485200
0.89803900 0.89542800 0.88634400 0.89905100
0.90196100 0.89958400 0.89034100 0.90326000
0.90588200 0.90375900 0.89438600 0.90746400
0.90980400 0.90793600 0.89848500 0.91166100
0.91372500 0.91211300 0.90263200 0.91585900
0.91764700 0.91630400 0.90680100 0.92004800
0.92156900 0.92049000 0.91098900 0.92420600
0.92549000 0.92465300 0.91521700 0.92833700
0.92941200 0.92880200 0.91947800 0.93243100
0.93333300 0.93292600 0.92374900 0.93648000
0.93725500 0.93702100 0.92803600 0.94049400
0.94117600 0.94110100 0.93233500 0.94447100
0.94509800 0.94516200 0.93664800 0.94841000
0.94902000 0.94919700 0.94099500 0.95230800
0.95294100 0.95320500 0.94537500 0.95616500
0.95686300 0.95718800 0.94978000 0.95998200
0.96078400 0.96114900 0.95421500 0.96375800
0.96470600 0.96508800 0.95868200 0.96749700
0.96862700 0.96901100 0.96318100 0.97120800
0.97254900 0.97292300 0.96771100 0.97489400
0.97647100 0.97682400 0.97226500 0.97855400
0.98039200 0.98071400 0.97683800 0.98219000
0.98431400 0.98459300 0.98143100 0.98580000
