displaycal/LG SDQHD/SDQHD #1 2026-07-24 16-43 2.2 F-S XYZLUT+MTX.ti3
CTI3   

DESCRIPTOR "Argyll Calibration Target chart information 3"
ORIGINATOR "Argyll dispread"
CREATED "Fri Jul 24 16:51:34 2026"
DEVICE_CLASS "DISPLAY"
SINGLE_DIM_STEPS "5"
COMP_GREY_STEPS "52"
MULTI_DIM_STEPS "5"
COLOR_REP "RGB_XYZ"
TARGET_INSTRUMENT "Datacolor SpyderX"
INSTRUMENT_TYPE_SPECTRAL "NO"
LUMINANCE_XYZ_CDM2 "108.881803 114.952581 141.744083"
NORMALIZED_TO_Y_100 "YES"
VIDEO_LUT_CALIBRATION_POSSIBLE "YES"

BEGIN_ARGYLL_COLPROF_ARGS
-v -qh -aX -bn -C "No copyright. Created with DisplayCAL 3.8.9.3 and ArgyllCMS 3.5.0" -M "LG SDQHD" -A "LG Electronics"
END_ARGYLL_COLPROF_ARGS

OBSERVER "1931_2"
USE_BLACK_POINT_COMPENSATION "NO"
BLACK_POINT_CORRECTION "0.0"
HIRES_B2A "YES"
HIRES_B2A_SIZE "-1"
SMOOTH_B2A "YES"
PATCH_SEQUENCE "OPTIMIZE_DISPLAY_RESPONSE_DELAY"

NUMBER_OF_FIELDS 7
BEGIN_DATA_FORMAT
SAMPLE_ID RGB_R RGB_G RGB_B XYZ_X XYZ_Y XYZ_Z
END_DATA_FORMAT

NUMBER_OF_SETS 175
BEGIN_DATA
1 100.0000 100.0000 100.0000 94.71889 100.0000 123.3066
2 100.0000 100.0000 75.00000 84.93187 96.08168 71.12753
3 100.0000 100.0000 100.0000 94.74288 100.0231 123.3364
4 100.0000 100.0000 100.0000 94.71919 99.97572 123.3064
5 0.000000 0.000000 0.000000 0.169462 0.161634 0.269203
6 25.00000 0.000000 0.000000 2.228616 1.104067 0.281731
7 50.00000 0.000000 0.000000 9.611469 4.447498 0.321262
8 75.00000 0.000000 0.000000 23.82705 10.87334 0.382817
9 100.0000 0.000000 0.000000 45.54193 20.67247 0.450750
10 100.0000 0.000000 25.00000 46.88542 21.21517 5.932701
11 100.0000 25.00000 25.00000 48.55974 24.85047 6.516611
12 100.0000 50.00000 25.00000 53.25572 36.95040 8.041611
13 100.0000 75.00000 25.00000 61.82766 59.25254 10.73814
14 0.000000 0.000000 25.00000 1.082027 0.520221 5.367452
15 25.00000 0.000000 25.00000 3.262820 1.505218 5.558834
16 75.00000 0.000000 100.0000 45.23420 19.02953 112.7233
17 100.0000 0.000000 100.0000 66.88948 28.80938 113.2168
18 1.960800 1.960800 1.960800 0.182295 0.197572 0.329673
19 3.921600 3.921600 3.921600 0.230123 0.255850 0.389364
20 5.882400 5.882400 5.882400 0.337698 0.359615 0.508359
21 7.843100 7.843100 7.843100 0.481488 0.510164 0.687279
22 9.803900 9.803900 9.803900 0.686092 0.742787 0.986283
23 11.76500 11.76500 11.76500 0.962365 1.008106 1.344205
24 13.72600 13.72600 13.72600 1.273171 1.332192 1.701577
25 15.68600 15.68600 15.68600 1.646166 1.750653 2.239661
26 17.64700 17.64700 17.64700 2.091440 2.214033 2.867014
27 19.60800 19.60800 19.60800 2.692885 2.778744 3.672672
28 21.56900 21.56900 21.56900 3.279959 3.428941 4.418622
29 23.52900 23.52900 23.52900 4.001962 4.182005 5.434326
30 27.45100 27.45100 27.45100 5.628723 5.932509 7.371539
31 29.41200 29.41200 29.41200 6.505365 6.847536 8.535652
32 31.37300 31.37300 31.37300 7.481333 7.830868 9.939946
33 33.33300 33.33300 33.33300 8.546835 9.051702 11.28273
34 35.29400 35.29400 35.29400 9.795871 10.25138 12.89326
35 37.25500 37.25500 37.25500 10.95367 11.55195 14.20382
36 39.21600 39.21600 39.21600 12.15670 12.91239 15.93769
37 41.17600 41.17600 41.17600 13.53347 14.29930 17.57630
38 43.13700 43.13700 43.13700 14.88839 15.73632 19.30666
39 45.09800 45.09800 45.09800 16.31605 17.24262 21.15672
40 47.05900 47.05900 47.05900 17.93059 18.88617 23.48746
41 49.02000 49.02000 49.02000 19.68035 20.87392 25.75612
42 50.98000 50.98000 50.98000 21.37144 22.67039 27.93430
43 52.94100 52.94100 52.94100 23.35807 24.64532 30.25730
44 54.90200 54.90200 54.90200 25.23910 26.66260 32.61361
45 56.86300 56.86300 56.86300 27.28606 28.99921 35.17956
46 58.82400 58.82400 58.82400 29.30125 31.11928 37.77535
47 60.78400 60.78400 60.78400 31.37055 33.04295 40.55032
48 62.74500 62.74500 62.74500 33.73338 35.48532 43.56310
49 64.70600 64.70600 64.70600 36.17903 38.00830 46.63479
50 66.66700 66.66700 66.66700 38.95899 41.13559 50.67081
51 68.62700 68.62700 68.62700 41.64439 43.90140 54.04064
52 70.58800 70.58800 70.58800 44.57383 46.79076 58.28342
53 72.54900 72.54900 72.54900 47.47190 50.20154 62.01510
54 76.47100 76.47100 76.47100 53.35092 56.35178 69.62377
55 78.43100 78.43100 78.43100 56.26553 59.38550 73.35277
56 80.39200 80.39200 80.39200 59.15842 62.57876 77.23476
57 82.35300 82.35300 82.35300 62.06035 65.44281 80.84190
58 84.31400 84.31400 84.31400 65.33787 68.88366 85.16978
59 86.27500 86.27500 86.27500 68.67054 72.43030 89.40595
60 88.23500 88.23500 88.23500 72.33494 76.56695 94.03084
61 90.19600 90.19600 90.19600 75.93960 80.45329 98.95874
62 92.15700 92.15700 92.15700 80.00301 84.44808 103.9359
63 94.11800 94.11800 94.11800 83.56795 88.20216 108.6217
64 96.07800 96.07800 96.07800 87.35690 92.10578 114.3326
65 98.03900 98.03900 98.03900 91.58397 96.29807 119.3673
66 25.00000 25.00000 0.000000 3.526110 4.358855 0.661130
67 50.00000 25.00000 0.000000 11.11893 7.836324 0.695987
68 75.00000 25.00000 0.000000 25.46287 14.34003 0.754659
69 100.0000 25.00000 0.000000 47.17774 24.19995 0.853250
70 100.0000 50.00000 0.000000 51.75562 36.03883 2.228298
71 50.00000 50.00000 0.000000 15.59459 19.38962 2.071999
72 75.00000 50.00000 0.000000 29.99552 26.03579 2.130034
73 25.00000 50.00000 0.000000 7.885181 15.77285 2.009056
74 25.00000 75.00000 0.000000 16.18941 37.61603 4.588653
75 50.00000 75.00000 0.000000 24.00364 41.31197 4.649334
76 75.00000 75.00000 0.000000 38.50940 48.09809 4.735765
77 100.0000 75.00000 0.000000 60.22273 58.14023 4.865777
78 25.00000 100.0000 0.000000 28.65836 70.37417 8.487974
79 50.00000 100.0000 0.000000 36.55435 74.11414 8.546787
80 75.00000 100.0000 0.000000 51.09602 80.78895 8.601324
81 100.0000 100.0000 0.000000 72.78582 90.83239 8.731956
82 100.0000 100.0000 25.00000 74.35912 91.83760 14.69540
83 50.00000 0.000000 25.00000 10.85778 4.934277 5.653937
84 50.00000 25.00000 50.00000 16.05538 9.884097 25.27015
85 0.000000 25.00000 0.000000 1.339363 3.277845 0.651103
86 0.000000 25.00000 25.00000 2.337190 3.765938 5.929672
87 25.49000 25.49000 25.49000 4.825887 5.062560 6.357246
88 50.00000 25.00000 25.00000 12.43934 8.465480 6.239645
89 75.00000 25.00000 25.00000 26.91317 15.04721 6.355986
90 0.000000 50.00000 0.000000 5.537081 14.37299 1.971041
91 0.000000 50.00000 25.00000 6.674562 15.15710 7.338619
92 25.00000 50.00000 25.00000 9.133297 16.60025 7.586075
93 50.00000 50.00000 25.00000 17.05465 20.31479 7.704666
94 75.00000 50.00000 25.00000 31.54009 26.96881 7.851430
95 0.000000 75.00000 0.000000 13.77209 36.04999 4.521157
96 0.000000 75.00000 25.00000 14.96916 37.01332 10.00943
97 25.00000 75.00000 25.00000 17.51927 38.66984 10.25577
98 50.00000 75.00000 25.00000 25.52238 42.42842 10.37250
99 75.00000 75.00000 25.00000 40.17086 49.26771 10.54641
100 0.000000 100.0000 0.000000 26.22820 68.89378 8.421323
101 0.000000 100.0000 25.00000 27.41610 69.77291 13.96992
102 25.00000 100.0000 25.00000 29.97905 71.34379 14.21542
103 50.00000 100.0000 25.00000 38.05322 75.12284 14.36071
104 75.00000 100.0000 25.00000 52.72463 81.88782 14.47299
105 0.000000 0.000000 50.00000 4.354554 1.759117 23.28492
106 25.00000 0.000000 50.00000 6.651329 2.787964 23.89767
107 50.00000 0.000000 50.00000 14.36854 6.271809 24.20198
108 75.00000 0.000000 50.00000 28.74197 12.78700 24.50232
109 100.0000 0.000000 50.00000 50.48879 22.58571 24.90266
110 100.0000 0.000000 75.00000 57.15059 25.12987 60.73494
111 100.0000 25.00000 75.00000 59.01851 28.91529 62.07208
112 75.00000 0.000000 25.00000 25.21517 11.42535 5.772774
113 75.00000 25.00000 50.00000 30.55672 16.45278 25.53717
114 100.0000 25.00000 50.00000 52.26762 26.30201 25.93876
115 25.00000 25.00000 50.00000 8.127601 6.253992 24.94016
116 25.00000 50.00000 50.00000 12.68973 18.08282 26.61852
117 75.00000 50.00000 50.00000 35.30359 28.55052 27.21231
118 100.0000 50.00000 50.00000 57.04856 38.55573 27.64423
119 100.0000 50.00000 75.00000 63.82312 41.27715 63.83817
120 25.00000 75.00000 50.00000 21.11528 40.17523 29.46909
121 50.00000 75.00000 50.00000 29.22796 44.00130 29.76513
122 75.00000 75.00000 50.00000 43.86834 50.79300 30.06015
123 100.0000 75.00000 50.00000 65.64738 60.89340 30.49175
124 100.0000 75.00000 75.00000 72.44777 63.67456 66.80656
125 25.00000 100.0000 50.00000 33.60379 72.86058 33.64013
126 50.00000 100.0000 50.00000 41.81091 76.71798 33.96419
127 75.00000 100.0000 50.00000 56.51044 83.48214 34.25750
128 100.0000 100.0000 50.00000 78.20895 93.50217 34.72102
129 25.00000 0.000000 75.00000 13.15268 5.266825 59.40050
130 50.00000 0.000000 75.00000 20.95332 8.782718 59.76342
131 75.00000 0.000000 75.00000 35.45940 15.33974 60.21202
132 75.00000 25.00000 75.00000 37.32701 19.08865 61.51865
133 75.00000 50.00000 100.0000 51.95029 35.21032 115.7044
134 25.00000 25.00000 75.00000 14.71956 8.802125 60.80459
135 25.00000 50.00000 100.0000 29.02118 24.56585 115.1177
136 0.000000 25.00000 50.00000 5.715153 5.073777 24.32952
137 0.000000 25.00000 75.00000 12.20443 7.577572 59.83282
138 0.000000 50.00000 75.00000 16.67412 19.21723 61.48216
139 25.00000 50.00000 75.00000 19.30324 20.72672 62.45265
140 50.00000 50.00000 75.00000 27.41775 24.52866 62.80909
141 75.00000 50.00000 75.00000 42.06104 31.27203 63.19463
142 74.51000 74.51000 74.51000 50.39888 53.24683 65.77414
143 0.000000 75.00000 75.00000 25.08164 41.23856 64.51455
144 25.00000 75.00000 75.00000 27.82581 42.94799 65.48324
145 50.00000 75.00000 75.00000 35.98571 46.75932 65.77796
146 0.000000 75.00000 50.00000 18.45928 38.48619 28.74059
147 0.000000 100.0000 50.00000 30.94794 71.28098 32.97286
148 0.000000 100.0000 75.00000 37.55059 73.91347 68.83751
149 25.00000 100.0000 75.00000 40.28316 75.55061 69.77577
150 50.00000 100.0000 75.00000 48.57402 79.41576 70.15829
151 75.00000 100.0000 75.00000 63.34613 86.20056 70.54072
152 75.00000 100.0000 100.0000 73.23171 90.18710 122.9297
153 25.00000 0.000000 100.0000 22.81730 8.915241 112.1870
154 50.00000 0.000000 100.0000 30.69894 12.47509 112.5178
155 0.000000 0.000000 75.00000 10.77828 4.192501 58.48655
156 0.000000 0.000000 100.0000 20.43343 7.841805 111.3642
157 0.000000 25.00000 100.0000 21.85606 11.26298 112.5896
158 25.00000 25.00000 100.0000 24.36814 12.48722 113.4403
159 50.00000 25.00000 100.0000 32.44751 16.15738 113.7363
160 75.00000 25.00000 100.0000 47.11373 22.82644 114.0602
161 100.0000 25.00000 100.0000 68.75587 32.65543 114.5240
162 100.0000 50.00000 100.0000 73.62924 45.15911 116.2892
163 50.00000 25.00000 75.00000 22.68035 12.43005 61.04282
164 50.00000 50.00000 100.0000 37.21684 28.39961 115.4420
165 0.000000 50.00000 50.00000 10.11425 16.59574 25.91941
166 0.000000 50.00000 100.0000 26.37281 23.02163 114.2990
167 0.000000 75.00000 100.0000 34.78613 45.15112 117.1501
168 25.00000 75.00000 100.0000 37.53978 46.85965 118.0277
169 50.00000 75.00000 100.0000 45.81688 50.76173 118.3502
170 75.00000 75.00000 100.0000 60.63315 57.65305 118.6715
171 100.0000 75.00000 100.0000 82.29774 67.68733 119.1966
172 0.000000 100.0000 100.0000 47.25447 77.81380 121.4427
173 25.00000 100.0000 100.0000 50.00904 79.44948 122.3198
174 50.00000 100.0000 100.0000 58.37937 83.35843 122.6097
175 100.0000 100.0000 100.0000 94.77863 100.1063 123.3965
END_DATA
CAL    

DESCRIPTOR "Argyll Device Calibration State"
ORIGINATOR "Argyll dispread"
CREATED "Fri Jul 24 16:51:34 2026"
DEVICE_CLASS "DISPLAY"
COLOR_REP "RGB"

BEGIN_ARGYLL_DISPCAL_ARGS
-v2 -ql -m -t -g2.2 -f1.0 -k0 -A4.0 -d1 -c1 -yb -P0.506719761075,0.54443967368,1.0 -F -N
END_ARGYLL_DISPCAL_ARGS


NUMBER_OF_FIELDS 4
BEGIN_DATA_FORMAT
RGB_I RGB_R RGB_G RGB_B
END_DATA_FORMAT

NUMBER_OF_SETS 256
BEGIN_DATA
0.00000000 0.00000000 0.00000000 0.00000000
0.00392157 0.00270922 0.00269688 0.00277557
0.00784314 0.00548409 0.00545335 0.00560554
0.01176470 0.00832702 0.00827140 0.00849152
0.01568630 0.01124050 0.01115310 0.01143520
0.01960780 0.01422730 0.01410070 0.01443830
0.02352940 0.01729020 0.01711640 0.01750270
0.02745100 0.02043200 0.02020260 0.02063020
0.03137250 0.02365590 0.02336180 0.02382280
0.03529410 0.02696520 0.02659670 0.02708260
0.03921570 0.03036330 0.02991000 0.03041170
0.04313730 0.03385380 0.03330460 0.03381240
0.04705880 0.03744140 0.03678320 0.03728840
0.05098040 0.04113160 0.04035010 0.04084830
0.05490200 0.04492250 0.04400960 0.04449880
0.05882350 0.04881000 0.04776060 0.04823720
0.06274510 0.05279540 0.05159820 0.05206270
0.06666670 0.05687360 0.05552220 0.05597030
0.07058820 0.06104460 0.05953760 0.05996250
0.07450980 0.06530090 0.06364660 0.06404020
0.07843140 0.06963010 0.06784730 0.06820010
0.08235290 0.07402440 0.07214080 0.07244490
0.08627450 0.07847870 0.07651990 0.07676790
0.09019610 0.08297440 0.08096690 0.08115650
0.09411760 0.08750240 0.08545690 0.08558750
0.09803920 0.09205350 0.08997680 0.09005650
0.10196100 0.09662140 0.09452410 0.09456380
0.10588200 0.10119600 0.09909540 0.09909860
0.10980400 0.10576100 0.10368600 0.10365600
0.11372500 0.11030700 0.10826500 0.10821800
0.11764700 0.11483600 0.11283100 0.11279500
0.12156900 0.11933500 0.11737100 0.11737500
0.12549000 0.12381100 0.12188600 0.12196100
0.12941200 0.12826600 0.12638100 0.12656300
0.13333300 0.13269300 0.13085000 0.13117400
0.13725500 0.13709000 0.13527400 0.13577400
0.14117600 0.14145500 0.13965300 0.14035600
0.14509800 0.14578500 0.14397700 0.14491000
0.14902000 0.15007600 0.14825300 0.14942400
0.15294100 0.15431900 0.15246300 0.15388200
0.15686300 0.15853600 0.15661400 0.15828800
0.16078400 0.16272900 0.16072800 0.16265000
0.16470600 0.16689800 0.16480500 0.16696000
0.16862700 0.17106500 0.16885100 0.17123500
0.17254900 0.17523300 0.17288800 0.17548000
0.17647100 0.17939900 0.17691300 0.17969900
0.18039200 0.18356400 0.18092100 0.18389700
0.18431400 0.18774200 0.18492200 0.18808800
0.18823500 0.19192400 0.18892900 0.19226800
0.19215700 0.19609900 0.19294100 0.19643600
0.19607800 0.20027000 0.19696100 0.20060000
0.20000000 0.20446100 0.20099700 0.20479700
0.20392200 0.20866400 0.20507400 0.20902100
0.20784300 0.21286800 0.20918400 0.21326000
0.21176500 0.21707700 0.21332300 0.21751100
0.21568600 0.22128600 0.21748600 0.22176900
0.21960800 0.22550000 0.22166600 0.22603300
0.22352900 0.22972100 0.22586500 0.23030200
0.22745100 0.23393700 0.23007700 0.23456100
0.23137300 0.23813000 0.23428600 0.23879100
0.23529400 0.24230800 0.23846600 0.24299500
0.23921600 0.24647900 0.24262200 0.24717600
0.24313700 0.25064600 0.24675200 0.25134000
0.24705900 0.25482400 0.25086000 0.25549900
0.25098000 0.25900300 0.25495500 0.25964200
0.25490200 0.26317900 0.25902500 0.26376400
0.25882400 0.26734500 0.26306700 0.26786600
0.26274500 0.27150100 0.26708200 0.27194200
0.26666700 0.27564700 0.27106900 0.27599500
0.27058800 0.27977200 0.27503500 0.28001300
0.27451000 0.28387400 0.27897500 0.28399900
0.27843100 0.28795700 0.28289400 0.28796500
0.28235300 0.29203200 0.28679700 0.29192400
0.28627500 0.29609000 0.29070900 0.29587000
0.29019600 0.30012200 0.29463400 0.29979800
0.29411800 0.30411900 0.29856300 0.30370400
0.29803900 0.30806000 0.30249000 0.30756700
0.30196100 0.31196100 0.30639000 0.31139200
0.30588200 0.31583300 0.31026500 0.31519300
0.30980400 0.31967300 0.31413500 0.31897000
0.31372500 0.32348200 0.31799800 0.32272400
0.31764700 0.32726500 0.32185200 0.32645200
0.32156900 0.33102000 0.32569200 0.33015700
0.32549000 0.33475300 0.32951800 0.33383900
0.32941200 0.33848300 0.33333200 0.33751700
0.33333300 0.34220900 0.33714800 0.34119200
0.33725500 0.34593100 0.34096600 0.34486500
0.34117600 0.34964700 0.34478600 0.34853400
0.34509800 0.35335200 0.34860800 0.35220000
0.34902000 0.35705100 0.35243200 0.35586100
0.35294100 0.36074400 0.35626100 0.35951800
0.35686300 0.36442900 0.36009600 0.36317000
0.36078400 0.36811700 0.36393000 0.36682600
0.36470600 0.37180800 0.36777900 0.37049300
0.36862700 0.37550000 0.37164700 0.37416600
0.37254900 0.37919000 0.37553400 0.37784400
0.37647100 0.38287300 0.37942800 0.38151600
0.38039200 0.38654800 0.38331800 0.38518700
0.38431400 0.39019800 0.38720200 0.38884000
0.38823500 0.39382300 0.39105900 0.39247200
0.39215700 0.39742600 0.39489200 0.39608400
0.39607800 0.40101600 0.39870200 0.39967900
0.40000000 0.40463500 0.40250800 0.40328700
0.40392200 0.40829200 0.40633800 0.40692400
0.40784300 0.41198400 0.41019300 0.41058700
0.41176500 0.41570200 0.41406700 0.41427400
0.41568600 0.41943800 0.41795000 0.41797600
0.41960800 0.42318500 0.42183500 0.42168700
0.42352900 0.42694900 0.42571800 0.42541100
0.42745100 0.43073000 0.42960000 0.42915100
0.43137300 0.43451900 0.43347500 0.43290000
0.43529400 0.43831600 0.43733700 0.43664600
0.43921600 0.44211100 0.44118200 0.44039100
0.44313700 0.44589900 0.44501200 0.44413400
0.44705900 0.44968700 0.44882700 0.44788000
0.45098000 0.45347400 0.45262800 0.45163000
0.45490200 0.45725900 0.45641300 0.45538300
0.45882400 0.46103100 0.46018000 0.45913200
0.46274500 0.46479100 0.46393000 0.46286800
0.46666700 0.46855800 0.46767900 0.46660200
0.47058800 0.47232900 0.47143100 0.47034200
0.47451000 0.47611100 0.47518900 0.47409500
0.47843100 0.47989600 0.47895400 0.47786100
0.48235300 0.48368200 0.48272700 0.48163400
0.48627500 0.48746600 0.48650800 0.48540600
0.49019600 0.49124600 0.49029500 0.48916900
0.49411800 0.49502200 0.49408900 0.49292300
0.49803900 0.49879500 0.49789000 0.49666800
0.50196100 0.50257800 0.50170400 0.50040900
0.50588200 0.50637500 0.50553200 0.50416400
0.50980400 0.51018400 0.50937000 0.50792900
0.51372500 0.51400600 0.51321800 0.51170400
0.51764700 0.51784100 0.51707600 0.51548900
0.52156900 0.52169200 0.52094500 0.51928500
0.52549000 0.52556200 0.52482500 0.52310200
0.52941200 0.52945700 0.52871600 0.52694900
0.53333300 0.53337700 0.53261700 0.53082900
0.53725500 0.53732200 0.53652300 0.53474100
0.54117600 0.54128900 0.54043500 0.53868300
0.54509800 0.54525700 0.54432900 0.54264000
0.54902000 0.54923100 0.54820300 0.54659800
0.55294100 0.55321900 0.55207200 0.55056800
0.55686300 0.55721200 0.55593700 0.55454500
0.56078400 0.56119900 0.55979000 0.55851900
0.56470600 0.56517300 0.56362300 0.56247400
0.56862700 0.56912500 0.56743300 0.56640300
0.57254900 0.57305200 0.57121900 0.57029800
0.57647100 0.57696500 0.57499300 0.57416100
0.58039200 0.58086500 0.57877500 0.57800500
0.58431400 0.58474400 0.58256400 0.58183700
0.58823500 0.58859800 0.58635900 0.58565200
0.59215700 0.59243000 0.59014900 0.58945100
0.59607800 0.59624200 0.59393700 0.59324000
0.60000000 0.60003600 0.59771700 0.59702100
0.60392200 0.60382000 0.60148900 0.60079400
0.60784300 0.60760200 0.60526900 0.60457900
0.61176500 0.61138200 0.60906300 0.60838400
0.61568600 0.61516400 0.61287100 0.61221500
0.61960800 0.61896200 0.61670200 0.61608100
0.62352900 0.62279200 0.62057700 0.61999800
0.62745100 0.62665000 0.62450000 0.62396800
0.63137300 0.63053000 0.62845700 0.62797800
0.63529400 0.63443100 0.63243900 0.63201900
0.63921600 0.63835600 0.63644600 0.63609200
0.64313700 0.64229900 0.64047600 0.64019100
0.64705900 0.64625700 0.64452500 0.64430800
0.65098000 0.65022400 0.64858400 0.64843300
0.65490200 0.65418900 0.65264200 0.65255800
0.65882400 0.65815000 0.65670000 0.65667500
0.66274500 0.66211000 0.66075900 0.66079000
0.66666700 0.66606800 0.66481800 0.66490700
0.67058800 0.67005600 0.66889200 0.66903700
0.67451000 0.67409900 0.67301000 0.67320100
0.67843100 0.67819700 0.67717300 0.67740000
0.68235300 0.68235300 0.68138500 0.68163500
0.68627500 0.68656100 0.68564100 0.68591400
0.69019600 0.69080900 0.68993500 0.69023000
0.69411800 0.69507400 0.69426100 0.69456700
0.69803900 0.69933500 0.69859100 0.69889700
0.70196100 0.70358000 0.70291000 0.70321400
0.70588200 0.70778300 0.70719100 0.70749700
0.70980400 0.71194700 0.71143300 0.71174200
0.71372500 0.71606800 0.71563600 0.71594700
0.71764700 0.72014200 0.71979600 0.72009900
0.72156900 0.72416500 0.72390400 0.72418700
0.72549000 0.72814600 0.72796400 0.72821900
0.72941200 0.73210000 0.73199800 0.73221400
0.73333300 0.73603400 0.73601400 0.73618500
0.73725500 0.73994700 0.74001400 0.74013900
0.74117600 0.74384500 0.74399900 0.74407700
0.74509800 0.74773200 0.74797000 0.74800200
0.74902000 0.75160900 0.75192500 0.75191300
0.75294100 0.75548200 0.75586700 0.75581800
0.75686300 0.75934700 0.75979200 0.75971000
0.76078400 0.76320100 0.76370000 0.76358600
0.76470600 0.76703700 0.76759100 0.76744500
0.76862700 0.77085000 0.77146700 0.77128600
0.77254900 0.77465900 0.77534300 0.77512000
0.77647100 0.77846400 0.77921500 0.77894600
0.78039200 0.78225500 0.78307100 0.78275200
0.78431400 0.78602700 0.78690800 0.78653600
0.78823500 0.78977600 0.79071600 0.79029600
0.79215700 0.79349600 0.79449100 0.79402500
0.79607800 0.79717800 0.79823100 0.79772200
0.80000000 0.80082600 0.80194000 0.80139500
0.80392200 0.80448300 0.80565600 0.80508000
0.80784300 0.80816600 0.80938300 0.80878500
0.81176500 0.81187400 0.81312100 0.81251300
0.81568600 0.81560600 0.81686800 0.81626300
0.81960800 0.81935400 0.82062300 0.82003400
0.82352900 0.82311300 0.82438200 0.82381700
0.82745100 0.82688500 0.82815100 0.82761700
0.83137300 0.83067500 0.83193100 0.83143000
0.83529400 0.83448100 0.83572500 0.83525200
0.83921600 0.83831600 0.83954900 0.83909100
0.84313700 0.84218400 0.84340600 0.84295100
0.84705900 0.84609100 0.84729700 0.84684000
0.85098000 0.85002700 0.85119900 0.85074200
0.85490200 0.85397700 0.85510600 0.85464100
0.85882400 0.85793800 0.85902700 0.85853800
0.86274500 0.86191900 0.86298400 0.86244700
0.86666700 0.86592300 0.86697500 0.86637200
0.87058800 0.86994700 0.87099500 0.87031700
0.87451000 0.87398900 0.87504300 0.87429000
0.87843100 0.87804400 0.87910500 0.87828400
0.88235300 0.88210800 0.88317100 0.88228900
0.88627500 0.88617800 0.88723600 0.88629800
0.89019600 0.89024600 0.89130000 0.89031100
0.89411800 0.89431900 0.89536200 0.89433000
0.89803900 0.89839400 0.89942200 0.89835700
0.90196100 0.90246000 0.90346800 0.90237700
0.90588200 0.90649100 0.90747600 0.90637200
0.90980400 0.91048500 0.91144700 0.91033700
0.91372500 0.91445900 0.91540000 0.91428600
0.91764700 0.91841700 0.91933400 0.91822000
0.92156900 0.92235100 0.92324000 0.92213600
0.92549000 0.92626400 0.92713200 0.92604100
0.92941200 0.93017500 0.93102000 0.92994700
0.93333300 0.93407900 0.93489800 0.93385000
0.93725500 0.93798100 0.93876500 0.93775100
0.94117600 0.94187600 0.94262200 0.94164700
0.94509800 0.94576600 0.94647400 0.94554000
0.94902000 0.94965800 0.95032900 0.94943700
0.95294100 0.95355900 0.95418900 0.95334100
0.95686300 0.95746300 0.95805000 0.95724800
0.96078400 0.96136400 0.96190500 0.96115700
0.96470600 0.96525800 0.96575200 0.96506200
0.96862700 0.96914800 0.96959100 0.96896600
0.97254900 0.97302900 0.97342200 0.97286500
0.97647100 0.97690400 0.97724400 0.97675800
0.98039200 0.98077100 0.98105800 0.98064600
0.98431400 0.98463100 0.98486300 0.98452700
0.98823500 0.98848400 0.98866000 0.98840400
0.99215700 0.99233000 0.99244800 0.99227500
0.99607800 0.99616900 0.99622800 0.99614000
1.00000000 1.00000000 1.00000000 1.00000000
END_DATA
